3101-2520/DSE3101-project-ggplot/data/bridge_contributions.csv
target_quarter,variable,contribution,abs_contribution,abs_contribution_share,direction,prediction
1965 Q1,DPCERA3M086SBEA,3.466299362541216,3.466299362541216,0.22189478933486415,positive,12.02845916804833
1965 Q1,UEMP15T26,0.041462803474148976,0.041462803474148976,0.0026542370060571373,positive,12.02845916804833
1965 Q1,DMANEMP,3.3555199007483383,3.3555199007483383,0.21480325373271722,positive,12.02845916804833
1965 Q1,IPDMAT,-0.9714702451313051,0.9714702451313051,0.06218856562650296,negative,12.02845916804833
1965 Q1,W875RX1,-3.691841534238433,3.691841534238433,0.23633284774831623,negative,12.02845916804833
1965 Q1,UNRATE,2.3007932384961993,2.3007932384961993,0.14728503731567805,positive,12.02845916804833
1965 Q1,GDP_growth_lag1,-0.7392159037732864,0.7392159037732864,0.04732082837776082,negative,12.02845916804833
1965 Q1,GDP_growth_lag2,-1.054761411056587,1.054761411056587,0.06752044085810333,negative,12.02845916804833
1965 Q1,covid_dummy,0.0,0.0,0.0,neutral,12.02845916804833
1965 Q2,DPCERA3M086SBEA,-0.12801677168239475,0.12801677168239475,0.010177341409483124,negative,4.401959341121038
1965 Q2,UEMP15T26,0.05136243668842373,0.05136243668842373,0.004083316950828388,positive,4.401959341121038
1965 Q2,DMANEMP,3.496494835395732,3.496494835395732,0.2779715595750382,positive,4.401959341121038
1965 Q2,IPDMAT,-0.3146874882251963,0.3146874882251963,0.025017675128586027,negative,4.401959341121038
1965 Q2,W875RX1,-2.961973663031808,2.961973663031808,0.23547709271532632,negative,4.401959341121038
1965 Q2,UNRATE,0.7558495878678952,0.7558495878678952,0.060090089828492246,positive,4.401959341121038
1965 Q2,GDP_growth_lag1,-4.767128004576018,4.767128004576018,0.37898697653184393,negative,4.401959341121038
1965 Q2,GDP_growth_lag2,-0.10309360212562019,0.10309360212562019,0.008195947860401665,negative,4.401959341121038
1965 Q2,covid_dummy,0.0,0.0,0.0,neutral,4.401959341121038
1965 Q3,DPCERA3M086SBEA,1.762052920958056,1.762052920958056,0.10965992459032022,positive,8.89286536615943
1965 Q3,UEMP15T26,0.004561217362696112,0.004561217362696112,0.0002838636377398686,positive,8.89286536615943
1965 Q3,DMANEMP,4.218385310965291,4.218385310965291,0.2625277649673836,positive,8.89286536615943
1965 Q3,IPDMAT,-0.26372211254619204,0.26372211254619204,0.016412530310889434,negative,8.89286536615943
1965 Q3,W875RX1,-4.111530911116407,4.111530911116407,0.2558777686533107,negative,8.89286536615943
1965 Q3,UNRATE,2.251141605402119,2.251141605402119,0.14009795946214096,positive,8.89286536615943
1965 Q3,GDP_growth_lag1,-2.5136973085572802,2.5136973085572802,0.15643789923710463,negative,8.89286536615943
1965 Q3,GDP_growth_lag2,-0.9432483237103078,0.9432483237103078,0.0587022891411106,negative,8.89286536615943
1965 Q3,covid_dummy,0.0,0.0,0.0,neutral,8.89286536615943
1965 Q4,DPCERA3M086SBEA,0.7208313093090133,0.7208313093090133,0.04288764269259529,positive,4.956999162857979
1965 Q4,UEMP15T26,-0.00011556143951897421,0.00011556143951897421,6.875613840751013e-06,negative,4.956999162857979
1965 Q4,DMANEMP,3.642500920131598,3.642500920131598,0.21671960686586145,positive,4.956999162857979
1965 Q4,IPDMAT,-0.06902549842673193,0.06902549842673193,0.004106842856259603,negative,4.956999162857979
1965 Q4,W875RX1,-5.221287798338919,5.221287798338919,0.310653439436509,negative,4.956999162857979
1965 Q4,UNRATE,2.268432720997411,2.268432720997411,0.13496601875352554,positive,4.956999162857979
1965 Q4,GDP_growth_lag1,-4.3974913833473455,4.3974913833473455,0.26163963295872517,negative,4.956999162857979
1965 Q4,GDP_growth_lag2,-0.4877507978048982,0.4877507978048982,0.029019940822683127,negative,4.956999162857979
1965 Q4,covid_dummy,0.0,0.0,0.0,neutral,4.956999162857979
1966 Q1,DPCERA3M086SBEA,0.5747733735669629,0.5747733735669629,0.029395045621253443,positive,7.767876936053475
1966 Q1,UEMP15T26,-0.44877393704382257,0.44877393704382257,0.02295118556234896,negative,7.767876936053475
1966 Q1,DMANEMP,7.717098602209697,7.717098602209697,0.394667665392884,positive,7.767876936053475
1966 Q1,IPDMAT,-1.806207338747781,1.806207338747781,0.09237301093897703,negative,7.767876936053475
1966 Q1,W875RX1,-1.6776072610990074,1.6776072610990074,0.08579614895610017,negative,7.767876936053475
1966 Q1,UNRATE,1.3192542154048081,1.3192542154048081,0.06746926637745043,positive,7.767876936053475
1966 Q1,GDP_growth_lag1,-4.719717312218675,4.719717312218675,0.2413756657708578,negative,7.767876936053475
1966 Q1,GDP_growth_lag2,-1.2899777748444086,1.2899777748444086,0.06597201138012826,negative,7.767876936053475
1966 Q1,covid_dummy,0.0,0.0,0.0,neutral,7.767876936053475
1966 Q2,DPCERA3M086SBEA,-0.26354145484892805,0.26354145484892805,0.016506007084321296,negative,6.390312599815518
1966 Q2,UEMP15T26,-0.721340827737178,0.721340827737178,0.04517868666872648,negative,6.390312599815518
1966 Q2,DMANEMP,7.301439856450137,7.301439856450137,0.45730042002461085,positive,6.390312599815518
1966 Q2,IPDMAT,-0.7204789045493766,0.7204789045493766,0.04512470309239635,negative,6.390312599815518
1966 Q2,W875RX1,-1.2837573552113584,1.2837573552113584,0.08040369972084654,negative,6.390312599815518
1966 Q2,UNRATE,-0.0,0.0,0.0,neutral,6.390312599815518
1966 Q2,GDP_growth_lag1,-4.585499333367029,4.585499333367029,0.2871968834090794,negative,6.390312599815518
1966 Q2,GDP_growth_lag2,-1.0903388350142846,1.0903388350142846,0.06828960000001917,negative,6.390312599815518
1966 Q2,covid_dummy,0.0,0.0,0.0,neutral,6.390312599815518
1966 Q3,DPCERA3M086SBEA,1.7193120221067308,1.7193120221067308,0.13614804001116457,positive,9.303569125560369
1966 Q3,UEMP15T26,0.4630590012074628,0.4630590012074628,0.036668489845533045,positive,9.303569125560369
1966 Q3,DMANEMP,3.892654899374772,3.892654899374772,0.3082496534516947,positive,9.303569125560369
1966 Q3,IPDMAT,-0.9814761338448161,0.9814761338448161,0.07772065234381985,negative,9.303569125560369
1966 Q3,W875RX1,-1.794334697736889,1.794334697736889,0.14208889897806903,negative,9.303569125560369
1966 Q3,UNRATE,0.7413755137948553,0.7413755137948553,0.0587076818038871,positive,9.303569125560369
1966 Q3,GDP_growth_lag1,-0.6797581184089251,0.6797581184089251,0.05382835361649506,negative,9.303569125560369
1966 Q3,GDP_growth_lag2,-2.356283549210131,2.356283549210131,0.18658822994933671,negative,9.303569125560369
1966 Q3,covid_dummy,0.0,0.0,0.0,neutral,9.303569125560369
1966 Q4,DPCERA3M086SBEA,-0.07780873080939184,0.07780873080939184,0.01534624702513636,negative,5.571374433862325
1966 Q4,UEMP15T26,0.16287657249873616,0.16287657249873616,0.03212421138568978,positive,5.571374433862325
1966 Q4,DMANEMP,0.9875045893788527,0.9875045893788527,0.19476592420184433,positive,5.571374433862325
1966 Q4,IPDMAT,0.5820123945100499,0.5820123945100499,0.11479053680649742,positive,5.571374433862325
1966 Q4,W875RX1,-0.8496953786501459,0.8496953786501459,0.1675857585805522,negative,5.571374433862325
1966 Q4,UNRATE,-0.6901452585866527,0.6901452585866527,0.13611762473600184,negative,5.571374433862325
1966 Q4,GDP_growth_lag1,-1.322616529026854,1.322616529026854,0.2608601857765373,negative,5.571374433862325
1966 Q4,GDP_growth_lag2,-0.3975528715426319,0.3975528715426319,0.0784095114877407,negative,5.571374433862325
1966 Q4,covid_dummy,0.0,0.0,0.0,neutral,5.571374433862325
1967 Q1,DPCERA3M086SBEA,0.7213519738154132,0.7213519738154132,0.1331859017673725,positive,4.514390684161858
1967 Q1,UEMP15T26,0.5150095223738441,0.5150095223738441,0.09508812638765475,positive,4.514390684161858
1967 Q1,DMANEMP,-0.5371019399896008,0.5371019399896008,0.09916713174035773,negative,4.514390684161858
1967 Q1,IPDMAT,0.6219980523574259,0.6219980523574259,0.1148418171819842,positive,4.514390684161858
1967 Q1,W875RX1,-1.2685446862132417,1.2685446862132417,0.23421613040287095,negative,4.514390684161858
1967 Q1,UNRATE,-0.0,0.0,0.0,neutral,4.514390684161858
1967 Q1,GDP_growth_lag1,-1.0491237487224634,1.0491237487224634,0.19370362543004938,negative,4.514390684161858
1967 Q1,GDP_growth_lag2,-0.7029986925684212,0.7029986925684212,0.12979726708971048,negative,4.514390684161858
1967 Q1,covid_dummy,0.0,0.0,0.0,neutral,4.514390684161858
1967 Q2,DPCERA3M086SBEA,1.7748917458251885,1.7748917458251885,0.27926698043483766,positive,3.5477725955017485
1967 Q2,UEMP15T26,-0.34545438129573486,0.34545438129573486,0.05435486539918069,negative,3.5477725955017485
1967 Q2,DMANEMP,-1.1534994127170588,1.1534994127170588,0.18149518058245512,negative,3.5477725955017485
1967 Q2,IPDMAT,0.1480534408710711,0.1480534408710711,0.02329518826841402,positive,3.5477725955017485
1967 Q2,W875RX1,-0.6239478593098146,0.6239478593098146,0.09817389428289942,negative,3.5477725955017485
1967 Q2,UNRATE,-0.6127758309807272,0.6127758309807272,0.09641605264318513,negative,3.5477725955017485
1967 Q2,GDP_growth_lag1,-1.0621696416529578,1.0621696416529578,0.1671250707158286,negative,3.5477725955017485
1967 Q2,GDP_growth_lag2,-0.6347451127228406,0.6347451127228406,0.09987276767319943,negative,3.5477725955017485
1967 Q2,covid_dummy,0.0,0.0,0.0,neutral,3.5477725955017485
1967 Q3,DPCERA3M086SBEA,0.7371692141682064,0.7371692141682064,0.18842680920507943,positive,4.171496500061083
1967 Q3,UEMP15T26,-0.25457708057822487,0.25457708057822487,0.06507209751593583,negative,4.171496500061083
1967 Q3,DMANEMP,-0.8840064446258442,0.8840064446258442,0.22595967177702392,negative,4.171496500061083
1967 Q3,IPDMAT,-0.1878519674807173,0.1878519674807173,0.04801658310599392,negative,4.171496500061083
1967 Q3,W875RX1,-0.6280512030113581,0.6280512030113581,0.16053530441361963,negative,4.171496500061083
1967 Q3,UNRATE,0.5380675640822892,0.5380675640822892,0.13753471019700117,positive,4.171496500061083
1967 Q3,GDP_growth_lag1,-0.07993481361758228,0.07993481361758228,0.020432027796167523,negative,4.171496500061083
1967 Q3,GDP_growth_lag2,-0.6025727653210823,0.6025727653210823,0.1540227959891785,negative,4.171496500061083
1967 Q3,covid_dummy,0.0,0.0,0.0,neutral,4.171496500061083
1967 Q4,DPCERA3M086SBEA,1.042337342254393,1.042337342254393,0.17431260410019922,positive,6.968460579624743
1967 Q4,UEMP15T26,-0.07015675712362282,0.07015675712362282,0.01173248480476989,negative,6.968460579624743
1967 Q4,DMANEMP,2.7019222726048358,2.7019222726048358,0.45184902077424577,positive,6.968460579624743
1967 Q4,IPDMAT,-0.3543578835729632,0.3543578835729632,0.05926012910123973,negative,6.968460579624743
1967 Q4,W875RX1,-0.5601526934877381,0.5601526934877381,0.09367569474620041,negative,6.968460579624743
1967 Q4,UNRATE,-0.0,0.0,0.0,neutral,6.968460579624743
1967 Q4,GDP_growth_lag1,-1.208000739139079,1.208000739139079,0.2020168961220106,negative,6.968460579624743
1967 Q4,GDP_growth_lag2,-0.04277382356365356,0.04277382356365356,0.0071531703513344905,negative,6.968460579624743
1967 Q4,covid_dummy,0.0,0.0,0.0,neutral,6.968460579624743
1968 Q1,DPCERA3M086SBEA,2.008458665878991,2.008458665878991,0.4514931070541896,positive,6.3503364463418945
1968 Q1,UEMP15T26,0.5216556822958772,0.5216556822958772,0.11726601538457004,positive,6.3503364463418945
1968 Q1,DMANEMP,0.16344111817544632,0.16344111817544632,0.036740879719896216,positive,6.3503364463418945
1968 Q1,IPDMAT,-0.0033120545282861544,0.0033120545282861544,0.0007445360042071732,negative,6.3503364463418945
1968 Q1,W875RX1,-0.24996573766757096,0.24996573766757096,0.05619125226419956,negative,6.3503364463418945
1968 Q1,UNRATE,0.4964577528227899,0.4964577528227899,0.11160162623760317,positive,6.3503364463418945
1968 Q1,GDP_growth_lag1,-0.7987246431914784,0.7987246431914784,0.17954995886233321,negative,6.3503364463418945
1968 Q1,GDP_growth_lag2,-0.20646569432077286,0.20646569432077286,0.04641262447300104,negative,6.3503364463418945
1968 Q1,covid_dummy,0.0,0.0,0.0,neutral,6.3503364463418945
1968 Q2,DPCERA3M086SBEA,1.1350242181403103,1.1350242181403103,0.22854445310119623,positive,4.398243607680229
1968 Q2,UEMP15T26,0.7928046671614167,0.7928046671614167,0.15963633742490177,positive,4.398243607680229
1968 Q2,DMANEMP,0.6074126017509813,0.6074126017509813,0.12230644831649917,positive,4.398243607680229
1968 Q2,IPDMAT,-9.068452476955112e-05,9.068452476955112e-05,1.825991444672143e-05,negative,4.398243607680229
1968 Q2,W875RX1,-0.014675899475237241,0.014675899475237241,0.002955087094821442,negative,4.398243607680229
1968 Q2,UNRATE,-0.0,0.0,0.0,neutral,4.398243607680229
1968 Q2,GDP_growth_lag1,-2.2197019695692295,2.2197019695692295,0.44695132013485883,negative,4.398243607680229
1968 Q2,GDP_growth_lag2,-0.1966070269716308,0.1966070269716308,0.03958809401327583,negative,4.398243607680229
1968 Q2,covid_dummy,0.0,0.0,0.0,neutral,4.398243607680229
1968 Q3,DPCERA3M086SBEA,1.0996007739426068,1.0996007739426068,0.2380825816485791,positive,4.337071015615596
1968 Q3,UEMP15T26,-0.0,0.0,0.0,neutral,4.337071015615596
1968 Q3,DMANEMP,0.0,0.0,0.0,neutral,4.337071015615596
1968 Q3,IPDMAT,-0.047861011489025156,0.047861011489025156,0.010362736590993127,negative,4.337071015615596
1968 Q3,W875RX1,0.12373616559645913,0.12373616559645913,0.026791019474162996,positive,4.337071015615596
1968 Q3,UNRATE,1.2380458414169018,1.2380458414169018,0.2680583327228615,positive,4.337071015615596
1968 Q3,GDP_growth_lag1,-1.5656147984252262,1.5656147984252262,0.33898267617602906,negative,4.337071015615596
1968 Q3,GDP_growth_lag2,-0.5437101692991764,0.5437101692991764,0.1177226533873742,negative,4.337071015615596
1968 Q3,covid_dummy,0.0,0.0,0.0,neutral,4.337071015615596
1968 Q4,DPCERA3M086SBEA,0.523820839710183,0.523820839710183,0.10389561097081298,positive,6.4703529135755025
1968 Q4,UEMP15T26,2.22903123965003,2.22903123965003,0.44211025022333894,positive,6.4703529135755025
1968 Q4,DMANEMP,0.8601536894913858,0.8601536894913858,0.1706045012412079,positive,6.4703529135755025
1968 Q4,IPDMAT,0.08634052347777928,0.08634052347777928,0.01712494188514302,positive,6.4703529135755025
1968 Q4,W875RX1,0.03440116983345819,0.03440116983345819,0.006823192754101414,positive,6.4703529135755025
1968 Q4,UNRATE,-0.0,0.0,0.0,neutral,6.4703529135755025
1968 Q4,GDP_growth_lag1,-0.7572266283428116,0.7572266283428116,0.1501897542651657,negative,6.4703529135755025
1968 Q4,GDP_growth_lag2,-0.5508254120482965,0.5508254120482965,0.10925174866023006,negative,6.4703529135755025
1968 Q4,covid_dummy,0.0,0.0,0.0,neutral,6.4703529135755025
1969 Q1,DPCERA3M086SBEA,1.162329478286088,1.162329478286088,0.2926327342853218,positive,4.220826245339442
1969 Q1,UEMP15T26,-1.0390742427778592,1.0390742427778592,0.26160150152768835,negative,4.220826245339442
1969 Q1,DMANEMP,1.0080188171138633,1.0080188171138633,0.2537828629263082,positive,4.220826245339442
1969 Q1,IPDMAT,-0.06620098223692064,0.06620098223692064,0.0166670249755086,negative,4.220826245339442
1969 Q1,W875RX1,-0.025179000273686344,0.025179000273686344,0.006339166160979135,negative,4.220826245339442
1969 Q1,UNRATE,-0.0,0.0,0.0,neutral,4.220826245339442
1969 Q1,GDP_growth_lag1,-0.278885773482705,0.278885773482705,0.07021340159750611,negative,4.220826245339442
1969 Q1,GDP_growth_lag2,-0.3922852484497014,0.3922852484497014,0.09876330852668776,negative,4.220826245339442
1969 Q1,covid_dummy,0.0,0.0,0.0,neutral,4.220826245339442
1969 Q2,DPCERA3M086SBEA,0.7542782743752449,0.7542782743752449,0.21770255487961637,positive,3.3079539368203195
1969 Q2,UEMP15T26,-0.14417242974104405,0.14417242974104405,0.04161157408891874,negative,3.3079539368203195
1969 Q2,DMANEMP,0.5691857127064771,0.5691857127064771,0.1642804626181371,positive,3.3079539368203195
1969 Q2,IPDMAT,-0.01959548683378913,0.01959548683378913,0.0056557210949224525,negative,3.3079539368203195
1969 Q2,W875RX1,-0.08120642684643653,0.08120642684643653,0.02343809598885368,negative,3.3079539368203195
1969 Q2,UNRATE,-0.4455307200033544,0.4455307200033544,0.12859070626477073,negative,3.3079539368203195
1969 Q2,GDP_growth_lag1,-1.237572186303403,1.237572186303403,0.35719261174446704,negative,3.3079539368203195
1969 Q2,GDP_growth_lag2,-0.2131782047803616,0.2131782047803616,0.061528273320313874,negative,3.3079539368203195
1969 Q2,covid_dummy,0.0,0.0,0.0,neutral,3.3079539368203195
1969 Q3,DPCERA3M086SBEA,0.9945074404312073,0.9945074404312073,0.3013472224056494,positive,2.8300551354409613
1969 Q3,UEMP15T26,0.016291266273170246,0.016291266273170246,0.004936441540107592,positive,2.8300551354409613
1969 Q3,DMANEMP,-0.09398953078045179,0.09398953078045179,0.028479911647135276,negative,2.8300551354409613
1969 Q3,IPDMAT,-0.10858534298299456,0.10858534298299456,0.03290261105306797,negative,2.8300551354409613
1969 Q3,W875RX1,-0.1468553505285262,0.1468553505285262,0.04449886464196903,negative,2.8300551354409613
1969 Q3,UNRATE,-0.9278533418138937,0.9278533418138937,0.28115026191677595,negative,2.8300551354409613
1969 Q3,GDP_growth_lag1,-0.26269443632441675,0.26269443632441675,0.07959944341236587,negative,2.8300551354409613
1969 Q3,GDP_growth_lag2,-0.7494277277673046,0.7494277277673046,0.2270852433829289,negative,2.8300551354409613
1969 Q3,covid_dummy,0.0,0.0,0.0,neutral,2.8300551354409613
1969 Q4,DPCERA3M086SBEA,0.34127243148120423,0.34127243148120423,0.08119030113543796,positive,2.8379779755368024
1969 Q4,UEMP15T26,-0.5759926531537,0.5759926531537,0.13703133522499128,negative,2.8379779755368024
1969 Q4,DMANEMP,-1.4012722984940191,1.4012722984940191,0.33336920709853074,negative,2.8379779755368024
1969 Q4,IPDMAT,0.16487178593537188,0.16487178593537188,0.03922376586568068,positive,2.8379779755368024
1969 Q4,W875RX1,-0.05794590804551875,0.05794590804551875,0.013785601442703044,negative,2.8379779755368024
1969 Q4,UNRATE,0.9423162236583427,0.9423162236583427,0.22418141902517902,positive,2.8379779755368024
1969 Q4,GDP_growth_lag1,-0.5683692511248144,0.5683692511248144,0.13521769237163994,negative,2.8379779755368024
1969 Q4,GDP_growth_lag2,-0.1513239720531735,0.1513239720531735,0.03600067783583748,negative,2.8379779755368024
1969 Q4,covid_dummy,0.0,0.0,0.0,neutral,2.8379779755368024
1970 Q1,DPCERA3M086SBEA,0.6517213073952837,0.6517213073952837,0.11053465151383507,positive,0.01908892279516422
1970 Q1,UEMP15T26,-1.1054774135836871,1.1054774135836871,0.187493579357189,negative,0.01908892279516422
1970 Q1,DMANEMP,-1.1655989496694565,1.1655989496694565,0.1976904425935268,negative,0.01908892279516422
1970 Q1,IPDMAT,0.1700608535822359,0.1700608535822359,0.02884302994785561,positive,0.01908892279516422
1970 Q1,W875RX1,0.3359247939406962,0.3359247939406962,0.05697424591117553,positive,0.01908892279516422
1970 Q1,UNRATE,-1.8717722465798223,1.8717722465798223,0.3174603786024168,negative,0.01908892279516422
1970 Q1,GDP_growth_lag1,0.3859242321385839,0.3859242321385839,0.06545435913500021,positive,0.01908892279516422
1970 Q1,GDP_growth_lag2,-0.20960164426546235,0.20960164426546235,0.03554931293900085,negative,0.01908892279516422
1970 Q1,covid_dummy,0.0,0.0,0.0,neutral,0.01908892279516422
1970 Q2,DPCERA3M086SBEA,1.3794796837882306,1.3794796837882306,0.17693205344407995,positive,-1.514692460500967
1970 Q2,UEMP15T26,-1.0315856387876756,1.0315856387876756,0.1323111659556313,negative,-1.514692460500967
1970 Q2,DMANEMP,-3.8795931910582935,3.8795931910582935,0.4975965923155925,negative,-1.514692460500967
1970 Q2,IPDMAT,0.048513460326457064,0.048513460326457064,0.006222336041706906,positive,-1.514692460500967
1970 Q2,W875RX1,-0.02268738364616018,0.02268738364616018,0.002909883648859147,negative,-1.514692460500967
1970 Q2,UNRATE,-1.161059821989648,1.161059821989648,0.1489175236795894,negative,-1.514692460500967
1970 Q2,GDP_growth_lag1,0.1143128651803691,0.1143128651803691,0.014661767193190418,positive,-1.514692460500967
1970 Q2,GDP_growth_lag2,0.1594314592966117,0.1594314592966117,0.020448677721350308,positive,-1.514692460500967
1970 Q2,covid_dummy,0.0,0.0,0.0,neutral,-1.514692460500967
1970 Q3,DPCERA3M086SBEA,1.20838740974759,1.20838740974759,0.22697394191537115,positive,0.4364827540531588
1970 Q3,UEMP15T26,-0.842093568686764,0.842093568686764,0.1581722014021492,negative,0.4364827540531588
1970 Q3,DMANEMP,-1.855837972962655,1.855837972962655,0.3485859393119235,negative,0.4364827540531588
1970 Q3,IPDMAT,-0.0024388887223561256,0.0024388887223561256,0.00045810158459176804,negative,0.4364827540531588
1970 Q3,W875RX1,0.09097410547420814,0.09097410547420814,0.017087857060691252,positive,0.4364827540531588
1970 Q3,UNRATE,-1.1696698018181282,1.1696698018181282,0.21970153240299514,negative,0.4364827540531588
1970 Q3,GDP_growth_lag1,-0.10014413870566875,0.10014413870566875,0.01881028363783866,negative,0.4364827540531588
1970 Q3,GDP_growth_lag2,0.054357816441339794,0.054357816441339794,0.010210142684439429,positive,0.4364827540531588
1970 Q3,covid_dummy,0.0,0.0,0.0,neutral,0.4364827540531588
1970 Q4,DPCERA3M086SBEA,-0.48409343486784895,0.48409343486784895,0.06549246672431604,negative,-4.329795056602463
1970 Q4,UEMP15T26,-1.850711240862846,1.850711240862846,0.2503806819681735,negative,-4.329795056602463
1970 Q4,DMANEMP,-2.895743212516685,2.895743212516685,0.3917619044754961,negative,-4.329795056602463
1970 Q4,IPDMAT,-0.09190177854219948,0.09190177854219948,0.01243329022779153,negative,-4.329795056602463
1970 Q4,W875RX1,-0.05894399148844573,0.05894399148844573,0.007974467578163365,negative,-4.329795056602463
1970 Q4,UNRATE,-1.37608787910639,1.37608787910639,0.18616941098718343,negative,-4.329795056602463
1970 Q4,GDP_growth_lag1,-0.5811191019289543,0.5811191019289543,0.07861896217686992,negative,-4.329795056602463
1970 Q4,GDP_growth_lag2,-0.05298894465499227,0.05298894465499227,0.00716881586200621,negative,-4.329795056602463
1970 Q4,covid_dummy,0.0,0.0,0.0,neutral,-4.329795056602463
1971 Q1,DPCERA3M086SBEA,2.2625135661862172,2.2625135661862172,0.41619967780421824,positive,5.696636568223241
1971 Q1,UEMP15T26,0.5742010872321761,0.5742010872321761,0.10562690587694533,positive,5.696636568223241
1971 Q1,DMANEMP,-1.0578016244084758,1.0578016244084758,0.19458742782333918,negative,5.696636568223241
1971 Q1,IPDMAT,0.10151555366000381,0.10151555366000381,0.01867424856887375,positive,5.696636568223241
1971 Q1,W875RX1,0.2210730520077113,0.2210730520077113,0.040667395056508425,positive,5.696636568223241
1971 Q1,UNRATE,0.19641837075922558,0.19641837075922558,0.03613205412183184,positive,5.696636568223241
1971 Q1,GDP_growth_lag1,0.6805981788805651,0.6805981788805651,0.12519913559754303,positive,5.696636568223241
1971 Q1,GDP_growth_lag2,-0.3420037895538359,0.3420037895538359,0.06291315515074028,negative,5.696636568223241
1971 Q1,covid_dummy,0.0,0.0,0.0,neutral,5.696636568223241
1971 Q2,DPCERA3M086SBEA,1.8497921428314146,1.8497921428314146,0.31270130375985944,positive,3.756206428088647
1971 Q2,UEMP15T26,0.23863640733027905,0.23863640733027905,0.04034070313571874,positive,3.756206428088647
1971 Q2,DMANEMP,-0.058303934258232715,0.058303934258232715,0.009856089143600658,negative,3.756206428088647
1971 Q2,IPDMAT,0.1175434968380566,0.1175434968380566,0.01987034319082577,positive,3.756206428088647
1971 Q2,W875RX1,0.19411327080324448,0.19411327080324448,0.03281421271708645,positive,3.756206428088647
1971 Q2,UNRATE,0.25694021050003496,0.25694021050003496,0.0434349011174366,positive,3.756206428088647
1971 Q2,GDP_growth_lag1,-2.805307323260528,2.805307323260528,0.4742280157423052,negative,3.756206428088647
1971 Q2,GDP_growth_lag2,0.3948874559702181,0.3948874559702181,0.06675443119316737,positive,3.756206428088647
1971 Q2,covid_dummy,0.0,0.0,0.0,neutral,3.756206428088647
1971 Q3,DPCERA3M086SBEA,1.461518904913629,1.461518904913629,0.3513196175047332,positive,2.9699763803438732
1971 Q3,UEMP15T26,-0.5855917009310655,0.5855917009310655,0.1407644141265528,negative,2.9699763803438732
1971 Q3,DMANEMP,-0.052571567760135884,0.052571567760135884,0.012637142780035804,negative,2.9699763803438732
1971 Q3,IPDMAT,-0.20517391670071997,0.20517391670071997,0.049319664422339246,negative,2.9699763803438732
1971 Q3,W875RX1,0.37996593096388037,0.37996593096388037,0.09133613330779947,positive,2.9699763803438732
1971 Q3,UNRATE,-0.2457163248264242,0.2457163248264242,0.059065240252769526,negative,2.9699763803438732
1971 Q3,GDP_growth_lag1,-0.6147220497100445,0.6147220497100445,0.1477667614491933,negative,2.9699763803438732
1971 Q3,GDP_growth_lag2,-0.6148229929161623,0.6148229929161623,0.14779102615657666,negative,2.9699763803438732
1971 Q3,covid_dummy,0.0,0.0,0.0,neutral,2.9699763803438732
1971 Q4,DPCERA3M086SBEA,1.790738513432765,1.790738513432765,0.4209650478618143,positive,5.069295383760506
1971 Q4,UEMP15T26,-0.26397738176230967,0.26397738176230967,0.062055543182005415,negative,5.069295383760506
1971 Q4,DMANEMP,0.29465875055806506,0.29465875055806506,0.06926808917165533,positive,5.069295383760506
1971 Q4,IPDMAT,0.27953927089260777,0.27953927089260777,0.06571381676768834,positive,5.069295383760506
1971 Q4,W875RX1,0.5774828237795337,0.5774828237795337,0.13575409403895336,positive,5.069295383760506
1971 Q4,UNRATE,-0.0,0.0,0.0,neutral,5.069295383760506
1971 Q4,GDP_growth_lag1,-0.9341966664745668,0.9341966664745668,0.2196100332152592,negative,5.069295383760506
1971 Q4,GDP_growth_lag2,-0.11329541956773831,0.11329541956773831,0.026633375762623868,negative,5.069295383760506
1971 Q4,covid_dummy,0.0,0.0,0.0,neutral,5.069295383760506
1972 Q1,DPCERA3M086SBEA,2.414433494360975,2.414433494360975,0.35895420008824286,positive,9.407264493715406
1972 Q1,UEMP15T26,1.2004291545345784,1.2004291545345784,0.17846798759831267,positive,9.407264493715406
1972 Q1,DMANEMP,1.3186948671928362,1.3186948671928362,0.19605056934440737,positive,9.407264493715406
1972 Q1,IPDMAT,0.43484966894300897,0.43484966894300897,0.06464916736726577,positive,9.407264493715406
1972 Q1,W875RX1,0.4340081609558817,0.4340081609558817,0.0645240602449977,positive,9.407264493715406
1972 Q1,UNRATE,0.5230250779647191,0.5230250779647191,0.07775821902959726,positive,9.407264493715406
1972 Q1,GDP_growth_lag1,-0.26540632695755567,0.26540632695755567,0.0394579995737769,negative,9.407264493715406
1972 Q1,GDP_growth_lag2,-0.13545285435325313,0.13545285435325313,0.020137796753399412,negative,9.407264493715406
1972 Q1,covid_dummy,0.0,0.0,0.0,neutral,9.407264493715406
1972 Q2,DPCERA3M086SBEA,1.396638138221224,1.396638138221224,0.2846479843634855,positive,4.45265175379198
1972 Q2,UEMP15T26,0.10928248618812156,0.10928248618812156,0.02227279820619646,positive,4.45265175379198
1972 Q2,DMANEMP,0.8537260837268625,0.8537260837268625,0.17399740296429686,positive,4.45265175379198
1972 Q2,IPDMAT,0.13063431178525894,0.13063431178525894,0.02662450102196414,positive,4.45265175379198
1972 Q2,W875RX1,0.2571648154210175,0.2571648154210175,0.05241260735728633,positive,4.45265175379198
1972 Q2,UNRATE,0.2679959421287861,0.2679959421287861,0.054620092819253216,positive,4.45265175379198
1972 Q2,GDP_growth_lag1,-1.8673153746094715,1.8673153746094715,0.3805764306497409,negative,4.45265175379198
1972 Q2,GDP_growth_lag2,-0.02378782607644054,0.02378782607644054,0.004848182617776563,negative,4.45265175379198
1972 Q2,covid_dummy,0.0,0.0,0.0,neutral,4.45265175379198
1972 Q3,DPCERA3M086SBEA,1.934002070020769,1.934002070020769,0.2961620255318622,positive,4.651160452116924
1972 Q3,UEMP15T26,0.0944662059161137,0.0944662059161137,0.014466014965602273,positive,4.651160452116924
1972 Q3,DMANEMP,1.0096193919769547,1.0096193919769547,0.15460734441764637,positive,4.651160452116924
1972 Q3,IPDMAT,0.06349992142166089,0.06349992142166089,0.009724015108810727,positive,4.651160452116924
1972 Q3,W875RX1,0.06885246837449698,0.06885246837449698,0.010543673563100441,positive,4.651160452116924
1972 Q3,UNRATE,0.567221039389774,0.567221039389774,0.08686098870005846,positive,4.651160452116924
1972 Q3,GDP_growth_lag1,-2.2500003859947255,2.2500003859947255,0.3445522019304322,negative,4.651160452116924
1972 Q3,GDP_growth_lag2,-0.5425547610292862,0.5425547610292862,0.0830837357824872,negative,4.651160452116924
1972 Q3,covid_dummy,0.0,0.0,0.0,neutral,4.651160452116924
1972 Q4,DPCERA3M086SBEA,3.285115651367547,3.285115651367547,0.3615155309032174,positive,9.067120680513696
1972 Q4,UEMP15T26,0.3999375022946063,0.3999375022946063,0.044011728600773375,positive,9.067120680513696
1972 Q4,DMANEMP,2.4659952242435814,2.4659952242435814,0.27137418200972624,positive,9.067120680513696
1972 Q4,IPDMAT,0.1208879178652787,0.1208879178652787,0.0133032941438935,positive,9.067120680513696
1972 Q4,W875RX1,-0.21577298485450255,0.21577298485450255,0.023745065152203967,negative,9.067120680513696
1972 Q4,UNRATE,0.8779304461746198,0.8779304461746198,0.09661318657466234,positive,9.067120680513696
1972 Q4,GDP_growth_lag1,-0.9842905551189621,0.9842905551189621,0.1083177459669417,negative,9.067120680513696
1972 Q4,GDP_growth_lag2,-0.7371361662635018,0.7371361662635018,0.08111926664858139,negative,9.067120680513696
1972 Q4,covid_dummy,0.0,0.0,0.0,neutral,9.067120680513696
1973 Q1,DPCERA3M086SBEA,2.3871069133161757,2.3871069133161757,0.291929422356654,positive,8.27356691221743
1973 Q1,UEMP15T26,0.7087861511725004,0.7087861511725004,0.08668046266881965,positive,8.27356691221743
1973 Q1,DMANEMP,1.9438243664457602,1.9438243664457602,0.23771852081437914,positive,8.27356691221743
1973 Q1,IPDMAT,0.0933808600125935,0.0933808600125935,0.011419941172544072,positive,8.27356691221743
1973 Q1,W875RX1,0.04208910521988535,0.04208910521988535,0.005147255075090188,positive,8.27356691221743
1973 Q1,UNRATE,0.9783522988159989,0.9783522988159989,0.11964684943997297,positive,8.27356691221743
1973 Q1,GDP_growth_lag1,-1.6882246618735306,1.6882246618735306,0.2064601495642016,negative,8.27356691221743
1973 Q1,GDP_growth_lag2,-0.33523573462394035,0.33523573462394035,0.040997398908338326,negative,8.27356691221743
1973 Q1,covid_dummy,0.0,0.0,0.0,neutral,8.27356691221743
1973 Q2,DPCERA3M086SBEA,-0.6374837181426258,0.6374837181426258,0.1029821061725192,negative,1.6041531979172161
1973 Q2,UEMP15T26,0.7383150092922951,0.7383150092922951,0.11927086529713145,positive,1.6041531979172161
1973 Q2,DMANEMP,0.9327476142634316,0.9327476142634316,0.15068041913934777,positive,1.6041531979172161
1973 Q2,IPDMAT,0.027443746267855878,0.027443746267855878,0.004433391334546517,positive,1.6041531979172161
1973 Q2,W875RX1,-0.6684864072248501,0.6684864072248501,0.1079904258014527,negative,1.6041531979172161
1973 Q2,UNRATE,-0.0,0.0,0.0,neutral,1.6041531979172161
1973 Q2,GDP_growth_lag1,-2.536102380380644,2.536102380380644,0.4096938591023045,negative,1.6041531979172161
1973 Q2,GDP_growth_lag2,-0.649658844704585,0.649658844704585,0.10494893315269789,negative,1.6041531979172161
1973 Q2,covid_dummy,0.0,0.0,0.0,neutral,1.6041531979172161
1973 Q3,DPCERA3M086SBEA,1.3318047269475473,1.3318047269475473,0.2875991957270046,positive,3.665392982293741
1973 Q3,UEMP15T26,-0.5687228642928317,0.5687228642928317,0.12281397944656695,negative,3.665392982293741
1973 Q3,DMANEMP,0.269588388072501,0.269588388072501,0.05821679561439529,positive,3.665392982293741
1973 Q3,IPDMAT,0.04183317030834534,0.04183317030834534,0.009033746383350067,positive,3.665392982293741
1973 Q3,W875RX1,-0.3629496982888236,0.3629496982888236,0.07837788769264203,negative,3.665392982293741
1973 Q3,UNRATE,0.33418775572517284,0.33418775572517284,0.0721668333379911,positive,3.665392982293741
1973 Q3,GDP_growth_lag1,-1.0120682946089192,1.0120682946089192,0.21855308189020267,negative,3.665392982293741
1973 Q3,GDP_growth_lag2,-0.7096116224373887,0.7096116224373887,0.15323847990784736,negative,3.665392982293741
1973 Q3,covid_dummy,0.0,0.0,0.0,neutral,3.665392982293741
1973 Q4,DPCERA3M086SBEA,-1.9243249537726397,1.9243249537726397,0.3268090462402754,negative,3.790098982959826
1973 Q4,UEMP15T26,0.9640081709958369,0.9640081709958369,0.16371797825171516,positive,3.790098982959826
1973 Q4,DMANEMP,1.259952024632552,1.259952024632552,0.21397826737703807,positive,3.790098982959826
1973 Q4,IPDMAT,-0.010267198292098864,0.010267198292098864,0.001743683297783114,negative,3.790098982959826
1973 Q4,W875RX1,-0.2754048521532385,0.2754048521532385,0.04677214047746432,negative,3.790098982959826
1973 Q4,UNRATE,-0.28298187861528723,0.28298187861528723,0.04805895058016803,negative,3.790098982959826
1973 Q4,GDP_growth_lag1,0.5122576612026543,0.5122576612026543,0.08699696865579036,positive,3.790098982959826
1973 Q4,GDP_growth_lag2,-0.6590275182341222,0.6590275182341222,0.11192296511976534,negative,3.790098982959826
1973 Q4,covid_dummy,0.0,0.0,0.0,neutral,3.790098982959826
1974 Q1,DPCERA3M086SBEA,-0.6761762984236268,0.6761762984236268,0.12239554815668797,negative,0.8732920914379865
1974 Q1,UEMP15T26,-1.468373125259984,1.468373125259984,0.26579212253332807,negative,0.8732920914379865
1974 Q1,DMANEMP,-0.8002034263282239,0.8002034263282239,0.14484585932786165,negative,0.8732920914379865
1974 Q1,IPDMAT,0.014683489919512708,0.014683489919512708,0.0026578775413183915,positive,0.8732920914379865
1974 Q1,W875RX1,0.7613163514550095,0.7613163514550095,0.1378068595042752,positive,0.8732920914379865
1974 Q1,UNRATE,-0.5657522943940556,0.5657522943940556,0.1024075560688786,negative,0.8732920914379865
1974 Q1,GDP_growth_lag1,-0.9171780811429769,0.9171780811429769,0.16601959320446863,negative,0.8732920914379865
1974 Q1,GDP_growth_lag2,0.3208340303651608,0.3208340303651608,0.05807458366318155,positive,0.8732920914379865
1974 Q1,covid_dummy,0.0,0.0,0.0,neutral,0.8732920914379865
1974 Q2,DPCERA3M086SBEA,0.5328223748853267,0.5328223748853267,0.14943222559615962,positive,3.0837285962146797
1974 Q2,UEMP15T26,-0.6909203438496911,0.6909203438496911,0.19377145097058593,negative,3.0837285962146797
1974 Q2,DMANEMP,0.26972603194659805,0.26972603194659805,0.07564577456732284,positive,3.0837285962146797
1974 Q2,IPDMAT,0.014925009000809076,0.014925009000809076,0.004185780134540356,positive,3.0837285962146797
1974 Q2,W875RX1,-0.1331494118698051,0.1331494118698051,0.03734229996780233,negative,3.0837285962146797
1974 Q2,UNRATE,-0.6385140526987487,0.6385140526987487,0.17907389116257097,negative,3.0837285962146797
1974 Q2,GDP_growth_lag1,0.7889184777162926,0.7889184777162926,0.22125543050712157,positive,3.0837285962146797
1974 Q2,GDP_growth_lag2,-0.4966700130693122,0.4966700130693122,0.13929314709389637,negative,3.0837285962146797
1974 Q2,covid_dummy,0.0,0.0,0.0,neutral,3.0837285962146797
1974 Q3,DPCERA3M086SBEA,0.09203193457437993,0.09203193457437993,0.023914410824582424,positive,0.49187035675779034
1974 Q3,UEMP15T26,-1.1171417486595985,1.1171417486595985,0.2902882227814783,negative,0.49187035675779034
1974 Q3,DMANEMP,-0.7971672757884944,0.7971672757884944,0.20714315978777953,negative,0.49187035675779034
1974 Q3,IPDMAT,-0.023836435674427975,0.023836435674427975,0.006193875179830138,negative,0.49187035675779034
1974 Q3,W875RX1,-0.07519486467989556,0.07519486467989556,0.019539314197514472,negative,0.49187035675779034
1974 Q3,UNRATE,-1.0862893106212634,1.0862893106212634,0.28227124604833775,negative,0.49187035675779034
1974 Q3,GDP_growth_lag1,-0.1927625146557009,0.1927625146557009,0.050089156425701276,negative,0.49187035675779034
1974 Q3,GDP_growth_lag2,0.46396403786595575,0.46396403786595575,0.12056061475477614,positive,0.49187035675779034
1974 Q3,covid_dummy,0.0,0.0,0.0,neutral,0.49187035675779034
1974 Q4,DPCERA3M086SBEA,-2.067575419991941,2.067575419991941,0.17252477277115846,negative,-7.562319833549399
1974 Q4,UEMP15T26,-2.0642545462307837,2.0642545462307837,0.17224766897823005,negative,-7.562319833549399
1974 Q4,DMANEMP,-3.116461055747018,3.116461055747018,0.2600469759381327,negative,-7.562319833549399
1974 Q4,IPDMAT,-0.3431813897207823,0.3431813897207823,0.02863609748325366,negative,-7.562319833549399
1974 Q4,W875RX1,-0.40807026635569793,0.40807026635569793,0.03405062243289646,negative,-7.562319833549399
1974 Q4,UNRATE,-3.1611894184862748,3.1611894184862748,0.26377924637596095,negative,-7.562319833549399
1974 Q4,GDP_growth_lag1,0.7330369511964794,0.7330369511964794,0.06116682961849504,positive,-7.562319833549399
1974 Q4,GDP_growth_lag2,-0.09045435846225565,0.09045435846225565,0.007547786401872778,negative,-7.562319833549399
1974 Q4,covid_dummy,0.0,0.0,0.0,neutral,-7.562319833549399
1975 Q1,DPCERA3M086SBEA,1.8803399597918338,1.8803399597918338,0.14533075219928196,positive,-5.132478734361058
1975 Q1,UEMP15T26,-5.137339887605514,5.137339887605514,0.3970630237798803,negative,-5.132478734361058
1975 Q1,DMANEMP,-2.6527595084646003,2.6527595084646003,0.2050307619966968,negative,-5.132478734361058
1975 Q1,IPDMAT,-0.20500343634653936,0.20500343634653936,0.015844636738443035,negative,-5.132478734361058
1975 Q1,W875RX1,-0.3819054719810423,0.3819054719810423,0.029517327025359388,negative,-5.132478734361058
1975 Q1,UNRATE,-2.147577762700846,2.147577762700846,0.1659854591902188,negative,-5.132478734361058
1975 Q1,GDP_growth_lag1,0.3022947431895285,0.3022947431895285,0.023364244420188033,positive,-5.132478734361058
1975 Q1,GDP_growth_lag2,0.23112800563863142,0.23112800563863142,0.017863794649931722,positive,-5.132478734361058
1975 Q1,covid_dummy,0.0,0.0,0.0,neutral,-5.132478734361058
1975 Q2,DPCERA3M086SBEA,2.8904475783641197,2.8904475783641197,0.39558437573291316,positive,4.117747956370935
1975 Q2,UEMP15T26,-1.6702891535767015,1.6702891535767015,0.2285944561170864,negative,4.117747956370935
1975 Q2,DMANEMP,-1.0203518858443947,1.0203518858443947,0.139644554293594,negative,4.117747956370935
1975 Q2,IPDMAT,-0.08815913785960054,0.08815913785960054,0.012065390071900023,negative,4.117747956370935
1975 Q2,W875RX1,0.3031182555889189,0.3031182555889189,0.0414845253752209,positive,4.117747956370935
1975 Q2,UNRATE,-0.29679965431970945,0.29679965431970945,0.04061976658931686,negative,4.117747956370935
1975 Q2,GDP_growth_lag1,0.9431440797520232,0.9431440797520232,0.12907795484948842,positive,4.117747956370935
1975 Q2,GDP_growth_lag2,0.09446917640721414,0.09446917640721414,0.0129289769704803,positive,4.117747956370935
1975 Q2,covid_dummy,0.0,0.0,0.0,neutral,4.117747956370935
1975 Q3,DPCERA3M086SBEA,1.1459574458002502,1.1459574458002502,0.22320704467663283,positive,6.984213630040264
1975 Q3,UEMP15T26,1.6275724613101588,1.6275724613101588,0.3170149471234707,positive,6.984213630040264
1975 Q3,DMANEMP,0.3666993938428621,0.3666993938428621,0.07142489303101487,positive,6.984213630040264
1975 Q3,IPDMAT,0.1761712995677191,0.1761712995677191,0.034314254231222655,positive,6.984213630040264
1975 Q3,W875RX1,0.5326818725473557,0.5326818725473557,0.10375459137671593,positive,6.984213630040264
1975 Q3,UNRATE,0.5424340701818302,0.5424340701818302,0.10565410276003212,positive,6.984213630040264
1975 Q3,GDP_growth_lag1,-0.5057006500395119,0.5057006500395119,0.09849924881595194,negative,6.984213630040264
1975 Q3,GDP_growth_lag2,0.23683871189213695,0.23683871189213695,0.046130917984958955,positive,6.984213630040264
1975 Q3,covid_dummy,0.0,0.0,0.0,neutral,6.984213630040264
1975 Q4,DPCERA3M086SBEA,2.1275977415688545,2.1275977415688545,0.4374675167181626,positive,5.048750516677265
1975 Q4,UEMP15T26,0.20084816154395913,0.20084816154395913,0.041297537006809534,positive,5.048750516677265
1975 Q4,DMANEMP,0.5322185820072795,0.5322185820072795,0.10943250073686515,positive,5.048750516677265
1975 Q4,IPDMAT,0.06937556840712704,0.06937556840712704,0.014264706640268207,positive,5.048750516677265
1975 Q4,W875RX1,0.3395451969168441,0.3395451969168441,0.06981582618115605,positive,5.048750516677265
1975 Q4,UNRATE,0.26589494216937604,0.26589494216937604,0.054672176881041284,positive,5.048750516677265
1975 Q4,GDP_growth_lag1,-1.1981657574067281,1.1981657574067281,0.24636170093081228,negative,5.048750516677265
1975 Q4,GDP_growth_lag2,-0.12979570052769282,0.12979570052769282,0.026688034904885,negative,5.048750516677265
1975 Q4,covid_dummy,0.0,0.0,0.0,neutral,5.048750516677265
1976 Q1,DPCERA3M086SBEA,1.762028611460675,1.762028611460675,0.20322331667128374,positive,9.00772337511346
1976 Q1,UEMP15T26,2.678694095782562,2.678694095782562,0.30894679856614066,positive,9.00772337511346
1976 Q1,DMANEMP,1.1544529860472832,1.1544529860472832,0.13314866923250993,positive,9.00772337511346
1976 Q1,IPDMAT,0.24746237924466513,0.24746237924466513,0.028541037945904135,positive,9.00772337511346
1976 Q1,W875RX1,0.7718215397678084,0.7718215397678084,0.08901792636609056,positive,9.00772337511346
1976 Q1,UNRATE,0.8007964241303089,0.8007964241303089,0.09235974048988788,positive,9.00772337511346
1976 Q1,GDP_growth_lag1,-0.9399959848646898,0.9399959848646898,0.10841430182199711,negative,9.00772337511346
1976 Q1,GDP_growth_lag2,-0.31515371915539436,0.31515371915539436,0.03634820890618604,negative,9.00772337511346
1976 Q1,covid_dummy,0.0,0.0,0.0,neutral,9.00772337511346
1976 Q2,DPCERA3M086SBEA,1.423332884843314,1.423332884843314,0.33507547866496035,positive,3.470994509541196
1976 Q2,UEMP15T26,0.020371430153837657,0.020371430153837657,0.004795762665624345,positive,3.470994509541196
1976 Q2,DMANEMP,0.4413177263142104,0.4413177263142104,0.10389329858302589,positive,3.470994509541196
1976 Q2,IPDMAT,0.10981673948661161,0.10981673948661161,0.025852628672281667,positive,3.470994509541196
1976 Q2,W875RX1,0.4428512029909742,0.4428512029909742,0.10425430368377205,positive,3.470994509541196
1976 Q2,UNRATE,-0.0,0.0,0.0,neutral,3.470994509541196
1976 Q2,GDP_growth_lag1,-1.5604620256574286,1.5604620256574286,0.36735788637611394,negative,3.470994509541196
1976 Q2,GDP_growth_lag2,-0.2496458017043901,0.2496458017043901,0.0587706413542218,negative,3.470994509541196
1976 Q2,covid_dummy,0.0,0.0,0.0,neutral,3.470994509541196
1976 Q3,DPCERA3M086SBEA,1.0518685548837379,1.0518685548837379,0.25708607539057954,positive,2.848922284280441
1976 Q3,UEMP15T26,-1.0914023386361027,1.0914023386361027,0.2667484854541247,negative,2.848922284280441
1976 Q3,DMANEMP,0.4745643528941731,0.4745643528941731,0.11598776904146352,positive,2.848922284280441
1976 Q3,IPDMAT,0.07648009155561922,0.07648009155561922,0.018692417880786984,positive,2.848922284280441
1976 Q3,W875RX1,0.43759724161371977,0.43759724161371977,0.10695267666847305,positive,2.848922284280441
1976 Q3,UNRATE,-0.0,0.0,0.0,neutral,2.848922284280441
1976 Q3,GDP_growth_lag1,-0.5261013271908315,0.5261013271908315,0.12858386614686423,negative,2.848922284280441
1976 Q3,GDP_growth_lag2,-0.4334895061807194,0.4334895061807194,0.10594870941770795,negative,2.848922284280441
1976 Q3,covid_dummy,0.0,0.0,0.0,neutral,2.848922284280441
1976 Q4,DPCERA3M086SBEA,2.602486623070145,2.602486623070145,0.5403396458580794,positive,6.037514222156916
1976 Q4,UEMP15T26,0.4872049562548523,0.4872049562548523,0.10115562216127184,positive,6.037514222156916
1976 Q4,DMANEMP,0.23509164003773547,0.23509164003773547,0.04881075368307905,positive,6.037514222156916
1976 Q4,IPDMAT,0.060396910356075584,0.060396910356075584,0.012539870469814297,positive,6.037514222156916
1976 Q4,W875RX1,0.6158208098780605,0.6158208098780605,0.1278594077571088,positive,6.037514222156916
1976 Q4,UNRATE,-0.2675561226226004,0.2675561226226004,0.05555117143100109,negative,6.037514222156916
1976 Q4,GDP_growth_lag1,-0.3906515182009807,0.3906515182009807,0.08110877540251224,negative,6.037514222156916
1976 Q4,GDP_growth_lag2,-0.15718170857509378,0.15718170857509378,0.0326347532371331,negative,6.037514222156916
1976 Q4,covid_dummy,0.0,0.0,0.0,neutral,6.037514222156916
1977 Q1,DPCERA3M086SBEA,0.3815225305698296,0.3815225305698296,0.09249407474578847,positive,5.811204684381122
1977 Q1,UEMP15T26,1.4335164351285414,1.4335164351285414,0.34753327962587366,positive,5.811204684381122
1977 Q1,DMANEMP,0.6316801916117355,0.6316801916117355,0.15314082439929738,positive,5.811204684381122
1977 Q1,IPDMAT,0.13044583745051883,0.13044583745051883,0.03162452036949082,positive,5.811204684381122
1977 Q1,W875RX1,0.22676105207527691,0.22676105207527691,0.05497461360606445,positive,5.811204684381122
1977 Q1,UNRATE,0.7151366895229335,0.7151366895229335,0.17337352610708617,positive,5.811204684381122
1977 Q1,GDP_growth_lag1,-0.5049408580438982,0.5049408580438982,0.12241488699595082,negative,5.811204684381122
1977 Q1,GDP_growth_lag2,-0.1008285272051588,0.1008285272051588,0.024444274150448343,negative,5.811204684381122
1977 Q1,covid_dummy,0.0,0.0,0.0,neutral,5.811204684381122
1977 Q2,DPCERA3M086SBEA,0.4369129154286658,0.4369129154286658,0.13256236987927528,positive,4.246547165211194
1977 Q2,UEMP15T26,0.02088433038669989,0.02088433038669989,0.0063364488245591915,positive,4.246547165211194
1977 Q2,DMANEMP,0.7351249820472363,0.7351249820472363,0.2230419526097801,positive,4.246547165211194
1977 Q2,IPDMAT,0.12986405084115865,0.12986405084115865,0.03940164214357579,positive,4.246547165211194
1977 Q2,W875RX1,0.7201463045732032,0.7201463045732032,0.21849731931216512,positive,4.246547165211194
1977 Q2,UNRATE,0.33002894427791984,0.33002894427791984,0.10013304124761964,positive,4.246547165211194
1977 Q2,GDP_growth_lag1,-0.7986551638845093,0.7986551638845093,0.24231744474062603,negative,4.246547165211194
1977 Q2,GDP_growth_lag2,-0.1242878388323802,0.1242878388323802,0.037709781242398946,negative,4.246547165211194
1977 Q2,covid_dummy,0.0,0.0,0.0,neutral,4.246547165211194
1977 Q3,DPCERA3M086SBEA,1.1183746837568391,1.1183746837568391,0.2143995569954396,positive,4.467727993374414
1977 Q3,UEMP15T26,-0.2075498703333333,0.2075498703333333,0.03978863336252221,negative,4.467727993374414
1977 Q3,DMANEMP,0.6177646661298628,0.6177646661298628,0.1184294250123384,positive,4.467727993374414
1977 Q3,IPDMAT,-0.004091067282016248,0.004091067282016248,0.0007842836802746583,negative,4.467727993374414
1977 Q3,W875RX1,0.9015230513249005,0.9015230513249005,0.17282771653588377,positive,4.467727993374414
1977 Q3,UNRATE,0.7338114554564485,0.7338114554564485,0.14067633437440036,positive,4.467727993374414
1977 Q3,GDP_growth_lag1,-1.3631917333768302,1.3631917333768302,0.26133254622149843,negative,4.467727993374414
1977 Q3,GDP_growth_lag2,-0.2700040815106054,0.2700040815106054,0.05176150381764252,negative,4.467727993374414
1977 Q3,covid_dummy,0.0,0.0,0.0,neutral,4.467727993374414
1977 Q4,DPCERA3M086SBEA,1.6569949705853095,1.6569949705853095,0.23368516419958954,positive,6.626518963766413
1977 Q4,UEMP15T26,0.4891702349237386,0.4891702349237386,0.06898743128310561,positive,6.626518963766413
1977 Q4,DMANEMP,0.7993595284555643,0.7993595284555643,0.11273327075679726,positive,6.626518963766413
1977 Q4,IPDMAT,0.010468945952670389,0.010468945952670389,0.0014764301626589967,positive,6.626518963766413
1977 Q4,W875RX1,1.5364015092434304,1.5364015092434304,0.21667792922583498,positive,6.626518963766413
1977 Q4,UNRATE,0.8642409957042709,0.8642409957042709,0.12188347132872089,positive,6.626518963766413
1977 Q4,GDP_growth_lag1,-1.2402384770809123,1.2402384770809123,0.17491020631216836,negative,6.626518963766413
1977 Q4,GDP_growth_lag2,-0.4938406440975677,0.4938406440975677,0.06964609673112444,negative,6.626518963766413
1977 Q4,covid_dummy,0.0,0.0,0.0,neutral,6.626518963766413
1978 Q1,DPCERA3M086SBEA,1.4638141756922685,1.4638141756922685,0.3910976840889572,positive,5.728385368056816
1978 Q1,UEMP15T26,0.41638647208448243,0.41638647208448243,0.11124894650046559,positive,5.728385368056816
1978 Q1,DMANEMP,0.7507318409690805,0.7507318409690805,0.20057838573396286,positive,5.728385368056816
1978 Q1,IPDMAT,0.001686228795360897,0.001686228795360897,0.00045052178593493736,positive,5.728385368056816
1978 Q1,W875RX1,0.3554171594053138,0.3554171594053138,0.09495933994706439,positive,5.728385368056816
1978 Q1,UNRATE,0.1846262624109699,0.1846262624109699,0.04932791665088382,positive,5.728385368056816
1978 Q1,GDP_growth_lag1,-0.0014980576967014634,0.0014980576967014634,0.00040024677007551284,negative,5.728385368056816
1978 Q1,GDP_growth_lag2,-0.5686749953918007,0.5686749953918007,0.1519369585226557,negative,5.728385368056816
1978 Q1,covid_dummy,0.0,0.0,0.0,neutral,5.728385368056816
1978 Q2,DPCERA3M086SBEA,1.3358985719235719,1.3358985719235719,0.2599382957209734,positive,7.678377742643373
1978 Q2,UEMP15T26,1.1086241352662451,1.1086241352662451,0.2157153801738867,positive,7.678377742643373
1978 Q2,DMANEMP,0.8492588997462246,0.8492588997462246,0.16524825736435642,positive,7.678377742643373
1978 Q2,IPDMAT,0.1400575277115487,0.1400575277115487,0.02725230479422641,positive,7.678377742643373
1978 Q2,W875RX1,0.7884194507208111,0.7884194507208111,0.1534101560109748,positive,7.678377742643373
1978 Q2,UNRATE,0.7199532224990532,0.7199532224990532,0.1400880408051917,positive,7.678377742643373
1978 Q2,GDP_growth_lag1,-0.19638741632728465,0.19638741632728465,0.038212938747029496,negative,7.678377742643373
1978 Q2,GDP_growth_lag2,-0.0006918841749603541,0.0006918841749603541,0.00013462638336123278,negative,7.678377742643373
1978 Q2,covid_dummy,0.0,0.0,0.0,neutral,7.678377742643373
1978 Q3,DPCERA3M086SBEA,0.2660434105805741,0.2660434105805741,0.04630484223226416,positive,1.9334470383083469
1978 Q3,UEMP15T26,0.3456290819710757,0.3456290819710757,0.06015672433542902,positive,1.9334470383083469
1978 Q3,DMANEMP,0.932190005093139,0.932190005093139,0.16224762350675986,positive,1.9334470383083469
1978 Q3,IPDMAT,-0.030570070102091906,0.030570070102091906,0.005320719163904678,negative,1.9334470383083469
1978 Q3,W875RX1,0.5822196477339489,0.5822196477339489,0.10133530040835165,positive,1.9334470383083469
1978 Q3,UNRATE,-0.2298185361667574,0.2298185361667574,0.03999990466228307,negative,1.9334470383083469
1978 Q3,GDP_growth_lag1,-3.1658488301046575,3.1658488301046575,0.5510158296696344,negative,1.9334470383083469
1978 Q3,GDP_growth_lag2,-0.19315751643342063,0.19315751643342063,0.0336190560213732,negative,1.9334470383083469
1978 Q3,covid_dummy,0.0,0.0,0.0,neutral,1.9334470383083469
1978 Q4,DPCERA3M086SBEA,1.1523113955333477,1.1523113955333477,0.16054941988276125,positive,2.4306237901534935
1978 Q4,UEMP15T26,-0.8942148445417415,0.8942148445417415,0.1245893038099139,negative,2.4306237901534935
1978 Q4,DMANEMP,1.2150900811281946,1.2150900811281946,0.16929625827412317,positive,2.4306237901534935
1978 Q4,IPDMAT,-0.03515698139511214,0.03515698139511214,0.004898357327449458,negative,2.4306237901534935
1978 Q4,W875RX1,0.7551099427549256,0.7551099427549256,0.10520807459419064,positive,2.4306237901534935
1978 Q4,UNRATE,-0.0,0.0,0.0,neutral,2.4306237901534935
1978 Q4,GDP_growth_lag1,-0.7303487492383021,0.7303487492383021,0.10175814320402271,negative,2.4306237901534935
1978 Q4,GDP_growth_lag2,-2.3950682807678616,2.3950682807678616,0.33370044290753903,negative,2.4306237901534935
1978 Q4,covid_dummy,0.0,0.0,0.0,neutral,2.4306237901534935
1979 Q1,DPCERA3M086SBEA,0.21773478352184275,0.21773478352184275,0.06029106903434413,positive,3.6780073329652203
1979 Q1,UEMP15T26,-0.1441501770008619,0.1441501770008619,0.03991538757517826,negative,3.6780073329652203
1979 Q1,DMANEMP,0.7213959960877452,0.7213959960877452,0.19975557004589706,positive,3.6780073329652203
1979 Q1,IPDMAT,-0.00829167602361453,0.00829167602361453,0.0022959768001423126,negative,3.6780073329652203
1979 Q1,W875RX1,0.6558154546565274,0.6558154546565274,0.1815962255131363,positive,3.6780073329652203
1979 Q1,UNRATE,0.40178220485128086,0.40178220485128086,0.11125405990554317,positive,3.6780073329652203
1979 Q1,GDP_growth_lag1,-0.9749346972322799,0.9749346972322799,0.26996079443095544,negative,3.6780073329652203
1979 Q1,GDP_growth_lag2,-0.4872886549782575,0.4872886549782575,0.13493091669480342,negative,3.6780073329652203
1979 Q1,covid_dummy,0.0,0.0,0.0,neutral,3.6780073329652203
1979 Q2,DPCERA3M086SBEA,-0.02815311427394365,0.02815311427394365,0.008113254740982767,negative,3.9211611895624836
1979 Q2,UEMP15T26,1.4679578859436382,1.4679578859436382,0.42304081039866204,positive,3.9211611895624836
1979 Q2,DMANEMP,0.46208403629295647,0.46208403629295647,0.1331648591948519,positive,3.9211611895624836
1979 Q2,IPDMAT,-0.0017725637386061038,0.0017725637386061038,0.0005108231017003434,negative,3.9211611895624836
1979 Q2,W875RX1,-0.5985276970337972,0.5985276970337972,0.17248563083705798,negative,3.9211611895624836
1979 Q2,UNRATE,0.17663494580216613,0.17663494580216613,0.05090322503961882,positive,3.9211611895624836
1979 Q2,GDP_growth_lag1,-0.1275164431923556,0.1275164431923556,0.036748097465052386,negative,3.9211611895624836
1979 Q2,GDP_growth_lag2,-0.6073681441127173,0.6073681441127173,0.17503329922207353,negative,3.9211611895624836
1979 Q2,covid_dummy,0.0,0.0,0.0,neutral,3.9211611895624836
1979 Q3,DPCERA3M086SBEA,1.2634124570004448,1.2634124570004448,0.49479838439637563,positive,3.6967618783326843
1979 Q3,UEMP15T26,0.11773176545224102,0.11773176545224102,0.04610805205784146,positive,3.6967618783326843
1979 Q3,DMANEMP,-0.2966023414537269,0.2966023414537269,0.1161602915550757,negative,3.6967618783326843
1979 Q3,IPDMAT,-0.10768589621093394,0.10768589621093394,0.0421737233729263,negative,3.6967618783326843
1979 Q3,W875RX1,0.2868472438739431,0.2868472438739431,0.11233983965485805,positive,3.6967618783326843
1979 Q3,UNRATE,-0.31929352076588396,0.31929352076588396,0.12504698473392872,negative,3.6967618783326843
1979 Q3,GDP_growth_lag1,-0.07053105439499888,0.07053105439499888,0.027622532587080584,negative,3.6967618783326843
1979 Q3,GDP_growth_lag2,-0.09128412477669698,0.09128412477669698,0.0357501916419136,negative,3.6967618783326843
1979 Q3,covid_dummy,0.0,0.0,0.0,neutral,3.6967618783326843
1979 Q4,DPCERA3M086SBEA,-0.3913745255956533,0.3913745255956533,0.11951247648563548,negative,0.48263170941190214
1979 Q4,UEMP15T26,-1.0153768533868928,1.0153768533868928,0.31006157626066844,negative,0.48263170941190214
1979 Q4,DMANEMP,-0.7384145312848814,0.7384145312848814,0.22548669761406687,negative,0.48263170941190214
1979 Q4,IPDMAT,0.004340883515778127,0.004340883515778127,0.0013255582700911434,positive,0.48263170941190214
1979 Q4,W875RX1,0.42843698432964533,0.42843698432964533,0.13083009155320965,positive,0.48263170941190214
1979 Q4,UNRATE,-0.16212369975488972,0.16212369975488972,0.04950706698457555,negative,0.48263170941190214
1979 Q4,GDP_growth_lag1,-0.48182972834383386,0.48182972834383386,0.14713442064511348,negative,0.48263170941190214
1979 Q4,GDP_growth_lag2,-0.05286152278768218,0.05286152278768218,0.016142112186639253,negative,0.48263170941190214
1979 Q4,covid_dummy,0.0,0.0,0.0,neutral,0.48263170941190214
1980 Q1,DPCERA3M086SBEA,-0.8504371224025048,0.8504371224025048,0.22916950949434797,negative,-0.7969856653476068
1980 Q1,UEMP15T26,-0.9633200940238981,0.9633200940238981,0.25958837827991743,negative,-0.7969856653476068
1980 Q1,DMANEMP,-0.17287673492510486,0.17287673492510486,0.04658554465949075,negative,-0.7969856653476068
1980 Q1,IPDMAT,-0.010194984974526972,0.010194984974526972,0.002747269191770776,negative,-0.7969856653476068
1980 Q1,W875RX1,-0.6817696337419824,0.6817696337419824,0.18371824140438203,negative,-0.7969856653476068
1980 Q1,UNRATE,-0.5032455537969227,0.5032455537969227,0.13561089195288942,negative,-0.7969856653476068
1980 Q1,GDP_growth_lag1,-0.16250804718606085,0.16250804718606085,0.04379146733071189,negative,-0.7969856653476068
1980 Q1,GDP_growth_lag2,-0.36660014664150326,0.36660014664150326,0.09878869768648976,negative,-0.7969856653476068
1980 Q1,covid_dummy,0.0,0.0,0.0,neutral,-0.7969856653476068
1980 Q2,DPCERA3M086SBEA,-1.227347823329218,1.227347823329218,0.13008319974468446,negative,-6.4052395278107594
1980 Q2,UEMP15T26,-1.1812809541065379,1.1812809541065379,0.12520069974199471,negative,-6.4052395278107594
1980 Q2,DMANEMP,-3.459897792050463,3.459897792050463,0.36670499350269936,negative,-6.4052395278107594
1980 Q2,IPDMAT,-0.6253011379312762,0.6253011379312762,0.06627393741201439,negative,-6.4052395278107594
1980 Q2,W875RX1,-0.3415070701501054,0.3415070701501054,0.03619538942111437,negative,-6.4052395278107594
1980 Q2,UNRATE,-2.271044377501009,2.271044377501009,0.24070170963122567,negative,-6.4052395278107594
1980 Q2,GDP_growth_lag1,-0.2094785702833488,0.2094785702833488,0.02220205404078878,negative,-6.4052395278107594
1980 Q2,GDP_growth_lag2,-0.1192409325696297,0.1192409325696297,0.012638016505478356,negative,-6.4052395278107594
1980 Q2,covid_dummy,0.0,0.0,0.0,neutral,-6.4052395278107594
1980 Q3,DPCERA3M086SBEA,0.9617504768852853,0.9617504768852853,0.185218953329561,positive,3.565305301545526
1980 Q3,UEMP15T26,-2.024533578496302,2.024533578496302,0.38989529966655007,negative,3.565305301545526
1980 Q3,DMANEMP,-0.14579596821567684,0.14579596821567684,0.028078152578653297,negative,3.565305301545526
1980 Q3,IPDMAT,-0.009934664621538967,0.009934664621538967,0.0019132698419250663,negative,3.565305301545526
1980 Q3,W875RX1,0.24317269981975684,0.24317269981975684,0.04683147450553451,positive,3.565305301545526
1980 Q3,UNRATE,0.18950328753141307,0.18950328753141307,0.03649553747324604,positive,3.565305301545526
1980 Q3,GDP_growth_lag1,1.457230248284361,1.457230248284361,0.280641047583904,positive,3.565305301545526
1980 Q3,GDP_growth_lag2,-0.16058480839671574,0.16058480839671574,0.03092626502062602,negative,3.565305301545526
1980 Q3,covid_dummy,0.0,0.0,0.0,neutral,3.565305301545526
1980 Q4,DPCERA3M086SBEA,1.7284319938891284,1.7284319938891284,0.25997173915235605,positive,9.411415397060594
1980 Q4,UEMP15T26,0.5203507920354887,0.5203507920354887,0.07826544570630609,positive,9.411415397060594
1980 Q4,DMANEMP,0.9663533569392889,0.9663533569392889,0.14534824842830318,positive,9.411415397060594
1980 Q4,IPDMAT,0.6114170455510209,0.6114170455510209,0.09196263043108785,positive,9.411415397060594
1980 Q4,W875RX1,1.3853043370807925,1.3853043370807925,0.20836224915962576,positive,9.411415397060594
1980 Q4,UNRATE,0.4178978532337025,0.4178978532337025,0.06285560095931121,positive,9.411415397060594
1980 Q4,GDP_growth_lag1,0.06181068508729932,0.06181068508729932,0.009296883740381956,positive,9.411415397060594
1980 Q4,GDP_growth_lag2,0.9569719639116825,0.9569719639116825,0.1439372024226279,positive,9.411415397060594
1980 Q4,covid_dummy,0.0,0.0,0.0,neutral,9.411415397060594
1981 Q1,DPCERA3M086SBEA,0.06984945521602925,0.06984945521602925,0.023290064852016613,positive,2.7649074636826776
1981 Q1,UEMP15T26,1.3911389075577416,1.3911389075577416,0.4638506524493002,positive,2.7649074636826776
1981 Q1,DMANEMP,0.04062587867592228,0.04062587867592228,0.013545980367435373,positive,2.7649074636826776
1981 Q1,IPDMAT,-0.11228645453267001,0.11228645453267001,0.03743993134922497,negative,2.7649074636826776
1981 Q1,W875RX1,-0.17466795929133386,0.17466795929133386,0.05823994026700755,negative,2.7649074636826776
1981 Q1,UNRATE,-0.2822200965462611,0.2822200965462611,0.09410129729396138,negative,2.7649074636826776
1981 Q1,GDP_growth_lag1,-0.8853954731673831,0.8853954731673831,0.2952194534083945,negative,2.7649074636826776
1981 Q1,GDP_growth_lag2,0.04292529488079309,0.04292529488079309,0.01431268001265937,positive,2.7649074636826776
1981 Q1,covid_dummy,0.0,0.0,0.0,neutral,2.7649074636826776
1981 Q2,DPCERA3M086SBEA,0.4031414108043098,0.4031414108043098,0.10848298755116652,positive,1.93382069262771
1981 Q2,UEMP15T26,-0.5782771581504141,0.5782771581504141,0.15561098926452602,negative,1.93382069262771
1981 Q2,DMANEMP,0.5456188549510845,0.5456188549510845,0.14682283154997447,positive,1.93382069262771
1981 Q2,IPDMAT,0.04865760178562759,0.04865760178562759,0.013093475061886213,positive,1.93382069262771
1981 Q2,W875RX1,0.4186062425455416,0.4186062425455416,0.11264448300735842,positive,1.93382069262771
1981 Q2,UNRATE,-0.11978726115576678,0.11978726115576678,0.03223404892795116,negative,1.93382069262771
1981 Q2,GDP_growth_lag1,-0.8110284334260541,0.8110284334260541,0.21824299138971046,negative,1.93382069262771
1981 Q2,GDP_growth_lag2,-0.7910547605508798,0.7910547605508798,0.2128681932474268,negative,1.93382069262771
1981 Q2,covid_dummy,0.0,0.0,0.0,neutral,1.93382069262771
1981 Q3,DPCERA3M086SBEA,-0.2704183570595547,0.2704183570595547,0.09163862916379849,negative,2.0051182567026564
1981 Q3,UEMP15T26,-0.17476654055516896,0.17476654055516896,0.059224404638506055,negative,2.0051182567026564
1981 Q3,DMANEMP,-0.31611577521619705,0.31611577521619705,0.10712444455641744,negative,2.0051182567026564
1981 Q3,IPDMAT,-0.06961706365761075,0.06961706365761075,0.023591639078656745,negative,2.0051182567026564
1981 Q3,W875RX1,0.6910942475581388,0.6910942475581388,0.23419611803671725,positive,2.0051182567026564
1981 Q3,UNRATE,-0.13259117045388383,0.13259117045388383,0.04493213120491497,negative,2.0051182567026564
1981 Q3,GDP_growth_lag1,0.3611193719535342,0.3611193719535342,0.12237513965453801,positive,2.0051182567026564
1981 Q3,GDP_growth_lag2,-0.935198493721784,0.935198493721784,0.3169174936664509,negative,2.0051182567026564
1981 Q3,covid_dummy,0.0,0.0,0.0,neutral,2.0051182567026564
1981 Q4,DPCERA3M086SBEA,-0.1209572287977359,0.1209572287977359,0.022473175750173074,negative,-1.809357471602323
1981 Q4,UEMP15T26,-0.47522153379322973,0.47522153379322973,0.0882934997383304,negative,-1.809357471602323
1981 Q4,DMANEMP,-1.828738766561578,1.828738766561578,0.33976942189057774,negative,-1.809357471602323
1981 Q4,IPDMAT,-0.4629408706213253,0.4629408706213253,0.08601182129270075,negative,-1.809357471602323
1981 Q4,W875RX1,-0.20239516379165814,0.20239516379165814,0.03760388801963143,negative,-1.809357471602323
1981 Q4,UNRATE,-1.3049054730144551,1.3049054730144551,0.24244412941581459,negative,-1.809357471602323
1981 Q4,GDP_growth_lag1,-0.6621749317052058,0.6621749317052058,0.12302839413140135,negative,-1.809357471602323
1981 Q4,GDP_growth_lag2,0.32495957769059,0.32495957769059,0.060375669761370605,positive,-1.809357471602323
1981 Q4,covid_dummy,0.0,0.0,0.0,neutral,-1.809357471602323
1982 Q1,DPCERA3M086SBEA,0.6374058780709059,0.6374058780709059,0.09321156712587403,positive,-1.255406274759214
1982 Q1,UEMP15T26,-2.739445180783597,2.739445180783597,0.40060499462142884,negative,-1.255406274759214
1982 Q1,DMANEMP,-1.3085332751179655,1.3085332751179655,0.19135442801255417,negative,-1.255406274759214
1982 Q1,IPDMAT,-0.16508226885138233,0.16508226885138233,0.02414093988417922,negative,-1.255406274759214
1982 Q1,W875RX1,0.04930830637969416,0.04930830637969416,0.007210640297017701,positive,-1.255406274759214
1982 Q1,UNRATE,-0.80555253278018,0.80555253278018,0.11780062996893925,negative,-1.255406274759214
1982 Q1,GDP_growth_lag1,0.6480804319090285,0.6480804319090285,0.09477256919041765,positive,-1.255406274759214
1982 Q1,GDP_growth_lag2,-0.48486228639910417,0.48486228639910417,0.07090423089958912,negative,-1.255406274759214
1982 Q1,covid_dummy,0.0,0.0,0.0,neutral,-1.255406274759214
1982 Q2,DPCERA3M086SBEA,-0.19658347899318176,0.19658347899318176,0.039210435545986896,negative,0.7945358729780633
1982 Q2,UEMP15T26,-0.3677417146664799,0.3677417146664799,0.07334956566213191,negative,0.7945358729780633
1982 Q2,DMANEMP,-1.970539884376976,1.970539884376976,0.3930428310806309,negative,0.7945358729780633
1982 Q2,IPDMAT,-0.10026658826035731,0.10026658826035731,0.01999912005085181,negative,0.7945358729780633
1982 Q2,W875RX1,0.11199631401913679,0.11199631401913679,0.02233872487518538,positive,0.7945358729780633
1982 Q2,UNRATE,-0.8925107977559589,0.8925107977559589,0.17801972621880985,negative,0.7945358729780633
1982 Q2,GDP_growth_lag1,0.8324986676354265,0.8324986676354265,0.1660497388520173,positive,0.7945358729780633
1982 Q2,GDP_growth_lag2,0.5414125507627886,0.5414125507627886,0.10798985771438598,positive,0.7945358729780633
1982 Q2,covid_dummy,0.0,0.0,0.0,neutral,0.7945358729780633
1982 Q3,DPCERA3M086SBEA,1.6274471622322892,1.6274471622322892,0.239532177107762,positive,0.9141101021963771
1982 Q3,UEMP15T26,-1.1802424003406016,1.1802424003406016,0.17371134266546703,negative,0.9141101021963771
1982 Q3,DMANEMP,-1.799354554692506,1.799354554692506,0.26483398286373705,negative,0.9141101021963771
1982 Q3,IPDMAT,-0.1848537510131735,0.1848537510131735,0.027207286635338182,negative,0.9141101021963771
1982 Q3,W875RX1,-0.21731603177048595,0.21731603177048595,0.03198517495277937,negative,0.9141101021963771
1982 Q3,UNRATE,-0.7453577459542103,0.7453577459542103,0.10970381574026375,negative,0.9141101021963771
1982 Q3,GDP_growth_lag1,-0.2518206870953225,0.2518206870953225,0.037063665611102414,negative,0.9141101021963771
1982 Q3,GDP_growth_lag2,0.7878813293502122,0.7878813293502122,0.11596255442355008,positive,0.9141101021963771
1982 Q3,covid_dummy,0.0,0.0,0.0,neutral,0.9141101021963771
1982 Q4,DPCERA3M086SBEA,1.6218034121347678,1.6218034121347678,0.23699341961075654,positive,0.31664136774307305
1982 Q4,UEMP15T26,-1.1435375996911972,1.1435375996911972,0.16710464670163913,negative,0.31664136774307305
1982 Q4,DMANEMP,-2.1066067237075896,2.1066067237075896,0.3078375143935061,negative,0.31664136774307305
1982 Q4,IPDMAT,-0.1905768241353135,0.1905768241353135,0.02784890752630416,negative,0.31664136774307305
1982 Q4,W875RX1,0.3173023459009385,0.3173023459009385,0.046367252308709354,positive,0.31664136774307305
1982 Q4,UNRATE,-1.0342558867252676,1.0342558867252676,0.15113535803019276,negative,0.31664136774307305
1982 Q4,GDP_growth_lag1,0.2196439678427808,0.2196439678427808,0.03209647645728969,positive,0.31664136774307305
1982 Q4,GDP_growth_lag2,-0.2095156167958805,0.2095156167958805,0.030616424971602208,negative,0.31664136774307305
1982 Q4,covid_dummy,0.0,0.0,0.0,neutral,0.31664136774307305
1983 Q1,DPCERA3M086SBEA,1.0891039184229498,1.0891039184229498,0.2776614823025557,positive,6.72167192937959
1983 Q1,UEMP15T26,1.1673230427230488,1.1673230427230488,0.29760304860324643,positive,6.72167192937959
1983 Q1,DMANEMP,0.08477768547423242,0.08477768547423242,0.021613637979597953,positive,6.72167192937959
1983 Q1,IPDMAT,0.29620986514368863,0.29620986514368863,0.07551719247097294,positive,6.72167192937959
1983 Q1,W875RX1,0.3424169622857588,0.3424169622857588,0.08729745592273193,positive,6.72167192937959
1983 Q1,UNRATE,0.7426957632092869,0.7426957632092869,0.18934649212457835,positive,6.72167192937959
1983 Q1,GDP_growth_lag1,-0.022931712083020077,0.022931712083020077,0.00584632289077311,negative,6.72167192937959
1983 Q1,GDP_growth_lag2,0.1769573303355845,0.1769573303355845,0.04511436770554367,positive,6.72167192937959
1983 Q1,covid_dummy,0.0,0.0,0.0,neutral,6.72167192937959
1983 Q2,DPCERA3M086SBEA,2.1140903297096223,2.1140903297096223,0.3079329311102635,positive,8.121086961338928
1983 Q2,UEMP15T26,1.5995558558035414,1.5995558558035414,0.23298717005144465,positive,8.121086961338928
1983 Q2,DMANEMP,1.3355892413858335,1.3355892413858335,0.19453847552283282,positive,8.121086961338928
1983 Q2,IPDMAT,0.16633795710263666,0.16633795710263666,0.02422835673844814,positive,8.121086961338928
1983 Q2,W875RX1,0.630855453729687,0.630855453729687,0.09188877421361658,positive,8.121086961338928
1983 Q2,UNRATE,0.258297722366072,0.258297722366072,0.037622978370188416,positive,8.121086961338928
1983 Q2,GDP_growth_lag1,-0.7421756268681916,0.7421756268681916,0.10810338279703983,negative,8.121086961338928
1983 Q2,GDP_growth_lag2,-0.01852244328488021,0.01852244328488021,0.002697931196166154,negative,8.121086961338928
1983 Q2,covid_dummy,0.0,0.0,0.0,neutral,8.121086961338928
1983 Q3,DPCERA3M086SBEA,1.2128286679196136,1.2128286679196136,0.14927559705935142,positive,7.12069787569172
1983 Q3,UEMP15T26,1.1396007271705706,1.1396007271705706,0.1402626631917091,positive,7.12069787569172
1983 Q3,DMANEMP,1.6655311599504168,1.6655311599504168,0.20499446038740188,positive,7.12069787569172
1983 Q3,IPDMAT,0.18947056805285648,0.18947056805285648,0.02332013821851649,positive,7.12069787569172
1983 Q3,W875RX1,0.9062148352651715,0.9062148352651715,0.11153740357266717,positive,7.12069787569172
1983 Q3,UNRATE,1.1164207981170613,1.1164207981170613,0.13740966520379763,positive,7.12069787569172
1983 Q3,GDP_growth_lag1,-1.2748524693843584,1.2748524693843584,0.15690951950894355,negative,7.12069787569172
1983 Q3,GDP_growth_lag2,-0.6198425691800158,0.6198425691800158,0.07629055285761263,negative,7.12069787569172
1983 Q3,covid_dummy,0.0,0.0,0.0,neutral,7.12069787569172
1983 Q4,DPCERA3M086SBEA,2.100521799346527,2.100521799346527,0.2162710851334686,positive,8.19910474330604
1983 Q4,UEMP15T26,0.6869324616588284,0.6869324616588284,0.07072701123243655,positive,8.19910474330604
1983 Q4,DMANEMP,1.6202943899832614,1.6202943899832614,0.16682655998446108,positive,8.19910474330604
1983 Q4,IPDMAT,0.1358592208226669,0.1358592208226669,0.013988153382576933,positive,8.19910474330604
1983 Q4,W875RX1,1.7886868328659633,1.7886868328659633,0.1841643549846593,positive,8.19910474330604
1983 Q4,UNRATE,1.2213365526704392,1.2213365526704392,0.12574960261844442,positive,8.19910474330604
1983 Q4,GDP_growth_lag1,-1.1014782777034842,1.1014782777034842,0.11340891698623946,negative,8.19910474330604
1983 Q4,GDP_growth_lag2,-1.057339071059167,1.057339071059167,0.1088643156777138,negative,8.19910474330604
1983 Q4,covid_dummy,0.0,0.0,0.0,neutral,8.19910474330604
1984 Q1,DPCERA3M086SBEA,0.13304015810584274,0.13304015810584274,0.018145945324924934,positive,5.979763711205845
1984 Q1,UEMP15T26,1.7745985506155686,1.7745985506155686,0.24204547507785118,positive,5.979763711205845
1984 Q1,DMANEMP,1.323377572054987,1.323377572054987,0.18050141708067524,positive,5.979763711205845
1984 Q1,IPDMAT,0.17852851322260058,0.17852851322260058,0.024350306599155908,positive,5.979763711205845
1984 Q1,W875RX1,1.162108095104848,1.162108095104848,0.15850514803694546,positive,5.979763711205845
1984 Q1,UNRATE,0.6819804026850884,0.6819804026850884,0.0930183733692543,positive,5.979763711205845
1984 Q1,GDP_growth_lag1,-1.1484656452931894,1.1484656452931894,0.15664439296941585,negative,5.979763711205845
1984 Q1,GDP_growth_lag2,-0.929575204088204,0.929575204088204,0.12678894154177717,negative,5.979763711205845
1984 Q1,covid_dummy,0.0,0.0,0.0,neutral,5.979763711205845
1984 Q2,DPCERA3M086SBEA,1.8165447834143913,1.8165447834143913,0.2436247687682563,positive,6.339710444622623
1984 Q2,UEMP15T26,0.6058792748434637,0.6058792748434637,0.08125712043155582,positive,6.339710444622623
1984 Q2,DMANEMP,0.8790659628542749,0.8790659628542749,0.11789538242480119,positive,6.339710444622623
1984 Q2,IPDMAT,0.08673498859477931,0.08673498859477931,0.011632408808993336,positive,6.339710444622623
1984 Q2,W875RX1,1.2297957615000072,1.2297957615000072,0.16493329025694273,positive,6.339710444622623
1984 Q2,UNRATE,0.8712223212067686,0.8712223212067686,0.11684343732544447,positive,6.339710444622623
1984 Q2,GDP_growth_lag1,-1.0473990900416605,1.0473990900416605,0.14047127461391717,negative,6.339710444622623
1984 Q2,GDP_growth_lag2,-0.9196800650676349,0.9196800650676349,0.12334231737008902,negative,6.339710444622623
1984 Q2,covid_dummy,0.0,0.0,0.0,neutral,6.339710444622623
1984 Q3,DPCERA3M086SBEA,0.6807159518457249,0.6807159518457249,0.138821320133555,positive,2.8897243096382774
1984 Q3,UEMP15T26,-0.4780941279503984,0.4780941279503984,0.09749978358846635,negative,2.8897243096382774
1984 Q3,DMANEMP,0.5105329492265371,0.5105329492265371,0.10411517137381184,positive,2.8897243096382774
1984 Q3,IPDMAT,-0.013810568523031582,0.013810568523031582,0.0028164484010750387,negative,2.8897243096382774
1984 Q3,W875RX1,1.2973264302109653,1.2973264302109653,0.26456933644307334,positive,2.8897243096382774
1984 Q3,UNRATE,-0.1493773474364882,0.1493773474364882,0.030463162370376926,negative,2.8897243096382774
1984 Q3,GDP_growth_lag1,-0.9197851546878308,0.9197851546878308,0.1875757268017557,negative,2.8897243096382774
1984 Q3,GDP_growth_lag2,-0.8538978714841207,0.8538978714841207,0.1741390508878858,negative,2.8897243096382774
1984 Q3,covid_dummy,0.0,0.0,0.0,neutral,2.8897243096382774
1984 Q4,DPCERA3M086SBEA,1.1794275725084453,1.1794275725084453,0.3129524374846644,positive,4.048036295863989
1984 Q4,UEMP15T26,0.7447117083359732,0.7447117083359732,0.19760377812045976,positive,4.048036295863989
1984 Q4,DMANEMP,0.10205789071420832,0.10205789071420832,0.027080311167921495,positive,4.048036295863989
1984 Q4,IPDMAT,0.04036957636984229,0.04036957636984229,0.010711770370346324,positive,4.048036295863989
1984 Q4,W875RX1,0.4407060905325355,0.4407060905325355,0.11693812190023783,positive,4.048036295863989
1984 Q4,UNRATE,-0.0,0.0,0.0,neutral,4.048036295863989
1984 Q4,GDP_growth_lag1,-0.5098175842235152,0.5098175842235152,0.13527634877651618,negative,4.048036295863989
1984 Q4,GDP_growth_lag2,-0.7516214684514636,0.7516214684514636,0.19943723217985393,negative,4.048036295863989
1984 Q4,covid_dummy,0.0,0.0,0.0,neutral,4.048036295863989
1985 Q1,DPCERA3M086SBEA,1.0861763776666182,1.0861763776666182,0.35022985287698455,positive,2.8247507491740653
1985 Q1,UEMP15T26,-0.3522014385112411,0.3522014385112411,0.11356485054282292,negative,2.8247507491740653
1985 Q1,DMANEMP,-0.3176760113725547,0.3176760113725547,0.10243237195470126,negative,2.8247507491740653
1985 Q1,IPDMAT,0.0018671519496657027,0.0018671519496657027,0.0006020498752101442,positive,2.8247507491740653
1985 Q1,W875RX1,0.32798519095846046,0.32798519095846046,0.10575649363870494,positive,2.8247507491740653
1985 Q1,UNRATE,0.1462191218314554,0.1462191218314554,0.04714731656827706,positive,2.8247507491740653
1985 Q1,GDP_growth_lag1,-0.4356932625317934,0.4356932625317934,0.14048619577219248,negative,2.8247507491740653
1985 Q1,GDP_growth_lag2,-0.43350581471483346,0.43350581471483346,0.13978086877110657,negative,2.8247507491740653
1985 Q1,covid_dummy,0.0,0.0,0.0,neutral,2.8247507491740653
1985 Q2,DPCERA3M086SBEA,0.8267844439903494,0.8267844439903494,0.2734654293342039,positive,2.4650067163890017
1985 Q2,UEMP15T26,0.1507280513615344,0.1507280513615344,0.04985448332742345,positive,2.4650067163890017
1985 Q2,DMANEMP,-0.4800601756318785,0.4800601756318785,0.15878366240397884,negative,2.4650067163890017
1985 Q2,IPDMAT,-0.028747384628056868,0.028747384628056868,0.009508422584253202,negative,2.4650067163890017
1985 Q2,W875RX1,0.3585651167711657,0.3585651167711657,0.11859822026748283,positive,2.4650067163890017
1985 Q2,UNRATE,-0.3042820829908074,0.3042820829908074,0.10064368175843216,negative,2.4650067163890017
1985 Q2,GDP_growth_lag1,-0.5106385738060587,0.5106385738060587,0.1688977070571364,negative,2.4650067163890017
1985 Q2,GDP_growth_lag2,-0.36355418383272875,0.36355418383272875,0.12024839326708925,negative,2.4650067163890017
1985 Q2,covid_dummy,0.0,0.0,0.0,neutral,2.4650067163890017
1985 Q3,DPCERA3M086SBEA,2.9190496565500776,2.9190496565500776,0.5349995863583461,positive,5.371674290420707
1985 Q3,UEMP15T26,0.19354458511808575,0.19354458511808575,0.03547259730499114,positive,5.371674290420707
1985 Q3,DMANEMP,-0.5527452980253472,0.5527452980253472,0.10130643209221073,negative,5.371674290420707
1985 Q3,IPDMAT,-0.016401462015614116,0.016401462015614116,0.0030060384119659947,negative,5.371674290420707
1985 Q3,W875RX1,0.43822083875952855,0.43822083875952855,0.0803165396463454,positive,5.371674290420707
1985 Q3,UNRATE,0.4533877690711549,0.4533877690711549,0.08309631470938286,positive,5.371674290420707
1985 Q3,GDP_growth_lag1,-0.4596851216503641,0.4596851216503641,0.08425048521740067,negative,5.371674290420707
1985 Q3,GDP_growth_lag2,-0.42313706965095926,0.42313706965095926,0.07755200625935713,negative,5.371674290420707
1985 Q3,covid_dummy,0.0,0.0,0.0,neutral,5.371674290420707
1985 Q4,DPCERA3M086SBEA,-0.19502573160256687,0.19502573160256687,0.07225676195010212,negative,2.507333197355199
1985 Q4,UEMP15T26,0.05923019238771278,0.05923019238771278,0.021944703790878557,positive,2.507333197355199
1985 Q4,DMANEMP,-0.13991888791868073,0.13991888791868073,0.05183975311148156,negative,2.507333197355199
1985 Q4,IPDMAT,0.03078212064609466,0.03078212064609466,0.011404732829700668,positive,2.507333197355199
1985 Q4,W875RX1,0.9489514782379223,0.9489514782379223,0.351585201100369,positive,2.507333197355199
1985 Q4,UNRATE,0.15570393030373814,0.15570393030373814,0.05768808933161526,positive,2.507333197355199
1985 Q4,GDP_growth_lag1,-0.7894504654693265,0.7894504654693265,0.29249029800364895,negative,2.507333197355199
1985 Q4,GDP_growth_lag2,-0.38000266964841267,0.38000266964841267,0.14079045988220387,negative,2.507333197355199
1985 Q4,covid_dummy,0.0,0.0,0.0,neutral,2.507333197355199
1986 Q1,DPCERA3M086SBEA,0.1857139397958385,0.1857139397958385,0.052396927401659105,positive,1.3379873981623591
1986 Q1,UEMP15T26,-0.8066373626797293,0.8066373626797293,0.2275829126142023,negative,1.3379873981623591
1986 Q1,DMANEMP,-0.351824583776793,0.351824583776793,0.09926302352175201,negative,1.3379873981623591
1986 Q1,IPDMAT,0.029254096592197288,0.029254096592197288,0.008253687240858546,positive,1.3379873981623591
1986 Q1,W875RX1,0.8153812107611978,0.8153812107611978,0.2300498829107751,positive,1.3379873981623591
1986 Q1,UNRATE,-0.3164383553756203,0.3164383553756203,0.08927922993795816,negative,1.3379873981623591
1986 Q1,GDP_growth_lag1,-0.3830107686980299,0.3830107686980299,0.10806182596517196,negative,1.3379873981623591
1986 Q1,GDP_growth_lag2,-0.6561066710986044,0.6561066710986044,0.1851125104076229,negative,1.3379873981623591
1986 Q1,covid_dummy,0.0,0.0,0.0,neutral,1.3379873981623591
1986 Q2,DPCERA3M086SBEA,0.9068882222692687,0.9068882222692687,0.3040913963430819,positive,3.125938466586974
1986 Q2,UEMP15T26,0.44278348599754314,0.44278348599754314,0.1484710521410562,positive,3.125938466586974
1986 Q2,DMANEMP,-0.48695030047395554,0.48695030047395554,0.16328075851539953,negative,3.125938466586974
1986 Q2,IPDMAT,-0.07558846760942599,0.07558846760942599,0.025345794661736535,negative,3.125938466586974
1986 Q2,W875RX1,0.29677200495322603,0.29677200495322603,0.09951150667272332,positive,3.125938466586974
1986 Q2,UNRATE,-0.0,0.0,0.0,neutral,3.125938466586974
1986 Q2,GDP_growth_lag1,-0.4747195147185364,0.4747195147185364,0.15917961724196686,negative,3.125938466586974
1986 Q2,GDP_growth_lag2,-0.298586332997717,0.298586332997717,0.10011987442403573,negative,3.125938466586974
1986 Q2,covid_dummy,0.0,0.0,0.0,neutral,3.125938466586974
1986 Q3,DPCERA3M086SBEA,3.0084536225678584,3.0084536225678584,0.5763292837114495,positive,5.627779488986194
1986 Q3,UEMP15T26,-0.3744049542591916,0.3744049542591916,0.07172473508899864,negative,5.627779488986194
1986 Q3,DMANEMP,-0.21018382075457012,0.21018382075457012,0.04026490219245013,negative,5.627779488986194
1986 Q3,IPDMAT,0.1057242138657817,0.1057242138657817,0.020253581438364913,positive,5.627779488986194
1986 Q3,W875RX1,0.6047204936562808,0.6047204936562808,0.1158462694389424,positive,5.627779488986194
1986 Q3,UNRATE,0.3059356256520212,0.3059356256520212,0.05860806983068807,positive,5.627779488986194
1986 Q3,GDP_growth_lag1,-0.23113331167140377,0.23113331167140377,0.04427819493648542,negative,5.627779488986194
1986 Q3,GDP_growth_lag2,-0.37946957069807746,0.37946957069807746,0.07269496336262078,negative,5.627779488986194
1986 Q3,covid_dummy,0.0,0.0,0.0,neutral,5.627779488986194
1986 Q4,DPCERA3M086SBEA,0.3000638024287342,0.3000638024287342,0.10072529545691071,positive,3.9573338749478166
1986 Q4,UEMP15T26,0.6444807089577641,0.6444807089577641,0.21633902290319623,positive,3.9573338749478166
1986 Q4,DMANEMP,-0.23674757093377702,0.23674757093377702,0.0794713285574464,negative,3.9573338749478166
1986 Q4,IPDMAT,0.07230260141089122,0.07230260141089122,0.024270507906880654,positive,3.9573338749478166
1986 Q4,W875RX1,0.4484559695381906,0.4484559695381906,0.1505375179063052,positive,3.9573338749478166
1986 Q4,UNRATE,0.597089289148268,0.597089289148268,0.20043069032926736,positive,3.9573338749478166
1986 Q4,GDP_growth_lag1,-0.49137863588472214,0.49137863588472214,0.16494578113085592,negative,3.9573338749478166
1986 Q4,GDP_growth_lag2,-0.1885126676978048,0.1885126676978048,0.06327985580913749,negative,3.9573338749478166
1986 Q4,covid_dummy,0.0,0.0,0.0,neutral,3.9573338749478166
1987 Q1,DPCERA3M086SBEA,-0.47835324275476665,0.47835324275476665,0.21145524353649298,negative,2.7008766089282785
1987 Q1,UEMP15T26,0.6057769249125282,0.6057769249125282,0.26778266715301796,positive,2.7008766089282785
1987 Q1,DMANEMP,0.07657520550365056,0.07657520550365056,0.03384994033986838,positive,2.7008766089282785
1987 Q1,IPDMAT,0.10164942532031343,0.10164942532031343,0.04493395688648177,positive,2.7008766089282785
1987 Q1,W875RX1,0.3196720586632181,0.3196720586632181,0.14131049395038153,positive,2.7008766089282785
1987 Q1,UNRATE,-0.0,0.0,0.0,neutral,2.7008766089282785
1987 Q1,GDP_growth_lag1,-0.2778933038761876,0.2778933038761876,0.12284226591607933,negative,2.7008766089282785
1987 Q1,GDP_growth_lag2,-0.40227601228017773,0.40227601228017773,0.177825432217678,negative,2.7008766089282785
1987 Q1,covid_dummy,0.0,0.0,0.0,neutral,2.7008766089282785
1987 Q2,DPCERA3M086SBEA,0.8345916264706954,0.8345916264706954,0.2649433045774997,positive,3.461604456980478
1987 Q2,UEMP15T26,-0.6160624407996983,0.6160624407996983,0.19557064043618638,negative,3.461604456980478
1987 Q2,DMANEMP,0.050755467683509,0.050755467683509,0.016112456567903916,positive,3.461604456980478
1987 Q2,IPDMAT,0.09588489643269273,0.09588489643269273,0.030438912294599836,positive,3.461604456980478
1987 Q2,W875RX1,0.4241619407010816,0.4241619407010816,0.13465132249238537,positive,3.461604456980478
1987 Q2,UNRATE,0.5190111193595488,0.5190111193595488,0.16476144345837654,positive,3.461604456980478
1987 Q2,GDP_growth_lag1,-0.38471332512150125,0.38471332512150125,0.12212825583179691,negative,3.461604456980478
1987 Q2,GDP_growth_lag2,-0.2248954905174378,0.2248954905174378,0.07139366434125119,negative,3.461604456980478
1987 Q2,covid_dummy,0.0,0.0,0.0,neutral,3.461604456980478
1987 Q3,DPCERA3M086SBEA,0.6751204089640146,0.6751204089640146,0.13726754749621498,positive,5.9655056960588935
1987 Q3,UEMP15T26,1.359329165000277,1.359329165000277,0.2763829655305407,positive,5.9655056960588935
1987 Q3,DMANEMP,0.5855347678078634,0.5855347678078634,0.11905272079404025,positive,5.9655056960588935
1987 Q3,IPDMAT,0.11230755609100586,0.11230755609100586,0.022834715978387335,positive,5.9655056960588935
1987 Q3,W875RX1,0.9032413014358427,0.9032413014358427,0.1836497854296037,positive,5.9655056960588935
1987 Q3,UNRATE,0.4133766743871029,0.4133766743871029,0.08404901041627906,positive,5.9655056960588935
1987 Q3,GDP_growth_lag1,-0.5578037821228872,0.5578037821228872,0.11341437192458366,negative,5.9655056960588935
1987 Q3,GDP_growth_lag2,-0.311567622456216,0.311567622456216,0.06334888243035035,negative,5.9655056960588935
1987 Q3,covid_dummy,0.0,0.0,0.0,neutral,5.9655056960588935
1987 Q4,DPCERA3M086SBEA,0.7228143976816476,0.7228143976816476,0.1540396681889528,positive,5.661151458341467
1987 Q4,UEMP15T26,0.1062605202454053,0.1062605202454053,0.02264528118516659,positive,5.661151458341467
1987 Q4,DMANEMP,0.5022503058760256,0.5022503058760256,0.10703504345387693,positive,5.661151458341467
1987 Q4,IPDMAT,0.23855398301174668,0.23855398301174668,0.0508384676704615,positive,5.661151458341467
1987 Q4,W875RX1,1.9760583858203602,1.9760583858203602,0.4211196941428807,positive,5.661151458341467
1987 Q4,UNRATE,0.26183776221076566,0.26183776221076566,0.05580049614347678,positive,5.661151458341467
1987 Q4,GDP_growth_lag1,-0.4418780136943608,0.4418780136943608,0.09416904647692398,negative,5.661151458341467
1987 Q4,GDP_growth_lag2,-0.44273792377932053,0.44273792377932053,0.09435230273826074,negative,5.661151458341467
1987 Q4,covid_dummy,0.0,0.0,0.0,neutral,5.661151458341467
1988 Q1,DPCERA3M086SBEA,1.5649973954668313,1.5649973954668313,0.4664421879177836,positive,3.0132461934350236
1988 Q1,UEMP15T26,-0.3034530844342836,0.3034530844342836,0.09044316689850175,negative,3.0132461934350236
1988 Q1,DMANEMP,0.06729912987139894,0.06729912987139894,0.020058278354395956,positive,3.0132461934350236
1988 Q1,IPDMAT,0.007118313390274566,0.007118313390274566,0.002121589263765963,positive,3.0132461934350236
1988 Q1,W875RX1,0.17988121795758336,0.17988121795758336,0.05361298946086914,positive,3.0132461934350236
1988 Q1,UNRATE,-0.0,0.0,0.0,neutral,3.0132461934350236
1988 Q1,GDP_growth_lag1,-0.8749822036917351,0.8749822036917351,0.2607854905454037,negative,3.0132461934350236
1988 Q1,GDP_growth_lag2,-0.35744843095612217,0.35744843095612217,0.10653629755927993,negative,3.0132461934350236
1988 Q1,covid_dummy,0.0,0.0,0.0,neutral,3.0132461934350236
1988 Q2,DPCERA3M086SBEA,0.477100461092913,0.477100461092913,0.0935282469623491,positive,5.872673823503592
1988 Q2,UEMP15T26,1.943118335080941,1.943118335080941,0.38091862477811894,positive,5.872673823503592
1988 Q2,DMANEMP,0.38378546777895434,0.38378546777895434,0.07523527000742174,positive,5.872673823503592
1988 Q2,IPDMAT,0.09788904567531863,0.09788904567531863,0.019189649948895993,positive,5.872673823503592
1988 Q2,W875RX1,0.8235768568879506,0.8235768568879506,0.16144964414211857,positive,5.872673823503592
1988 Q2,UNRATE,0.3962543827609183,0.3962543827609183,0.07767961004665416,positive,5.872673823503592
1988 Q2,GDP_growth_lag1,-0.27133046095496405,0.27133046095496405,0.053190186197832744,negative,5.872673823503592
1988 Q2,GDP_growth_lag2,-0.7080826309447797,0.7080826309447797,0.1388087679166089,negative,5.872673823503592
1988 Q2,covid_dummy,0.0,0.0,0.0,neutral,5.872673823503592
1988 Q3,DPCERA3M086SBEA,0.3556535245392847,0.3556535245392847,0.13313523792097956,positive,2.8574690494660717
1988 Q3,UEMP15T26,-0.36910502588934724,0.36910502588934724,0.1381706690613144,negative,2.8574690494660717
1988 Q3,DMANEMP,0.1415591071125025,0.1415591071125025,0.052991195376787856,positive,2.8574690494660717
1988 Q3,IPDMAT,0.05582420044669252,0.05582420044669252,0.02089721511363209,positive,2.8574690494660717
1988 Q3,W875RX1,0.851990009884587,0.851990009884587,0.3189336948627737,positive,2.8574690494660717
1988 Q3,UNRATE,-0.0,0.0,0.0,neutral,2.8574690494660717
1988 Q3,GDP_growth_lag1,-0.6786602805910026,0.6786602805910026,0.2540494939310565,negative,2.8574690494660717
1988 Q3,GDP_growth_lag2,-0.21857818213514005,0.21857818213514005,0.08182249373345575,negative,2.8574690494660717
1988 Q3,covid_dummy,0.0,0.0,0.0,neutral,2.8574690494660717
1988 Q4,DPCERA3M086SBEA,1.3790931152926722,1.3790931152926722,0.3494346554747763,positive,4.950057183427701
1988 Q4,UEMP15T26,0.06072065758523278,0.06072065758523278,0.015385402064743687,positive,4.950057183427701
1988 Q4,DMANEMP,0.48364647977851005,0.48364647977851005,0.12254635974825102,positive,4.950057183427701
1988 Q4,IPDMAT,0.0837513350203692,0.0837513350203692,0.021220915813349204,positive,4.950057183427701
1988 Q4,W875RX1,0.9550758261000668,0.9550758261000668,0.24199714184980062,positive,4.950057183427701
1988 Q4,UNRATE,0.12952096203706953,0.12952096203706953,0.03281802529815404,positive,4.950057183427701
1988 Q4,GDP_growth_lag1,-0.305359094841024,0.305359094841024,0.07737189673317901,negative,4.950057183427701
1988 Q4,GDP_growth_lag2,-0.5494734640253903,0.5494734640253903,0.13922560301774597,negative,4.950057183427701
1988 Q4,covid_dummy,0.0,0.0,0.0,neutral,4.950057183427701
1989 Q1,DPCERA3M086SBEA,-0.08304050412355538,0.08304050412355538,0.023702138959275754,negative,4.055326795382337
1989 Q1,UEMP15T26,0.86868695306326,0.86868695306326,0.2479481439922368,positive,4.055326795382337
1989 Q1,DMANEMP,0.036710455187573016,0.036710455187573016,0.01047821565268295,positive,4.055326795382337
1989 Q1,IPDMAT,-0.05850914760097946,0.05850914760097946,0.016700186992648705,negative,4.055326795382337
1989 Q1,W875RX1,1.1284711897191964,1.1284711897191964,0.3220980078645318,positive,4.055326795382337
1989 Q1,UNRATE,0.38783009832124316,0.38783009832124316,0.11069782126228873,positive,4.055326795382337
1989 Q1,GDP_growth_lag1,-0.694712044104369,0.694712044104369,0.1982907206529524,negative,4.055326795382337
1989 Q1,GDP_growth_lag2,-0.24554215109893465,0.24554215109893465,0.07008476462338287,negative,4.055326795382337
1989 Q1,covid_dummy,0.0,0.0,0.0,neutral,4.055326795382337
1989 Q2,DPCERA3M086SBEA,0.5760584386805715,0.5760584386805715,0.19726595389363877,positive,0.947103824759176
1989 Q2,UEMP15T26,-0.053444868772234026,0.053444868772234026,0.01830170745041577,negative,0.947103824759176
1989 Q2,DMANEMP,-0.3065551440669299,0.3065551440669299,0.1049770107593154,negative,0.947103824759176
1989 Q2,IPDMAT,-0.06843169604016297,0.06843169604016297,0.02343380964410751,negative,0.947103824759176
1989 Q2,W875RX1,-0.4412003643952006,0.4412003643952006,0.15108503737916967,negative,0.947103824759176
1989 Q2,UNRATE,-0.387609326651917,0.387609326651917,0.13273327569889176,negative,0.947103824759176
1989 Q2,GDP_growth_lag1,-0.5307482978509884,0.5307482978509884,0.18174990977097105,negative,0.947103824759176
1989 Q2,GDP_growth_lag2,-0.5561640304685239,0.5561640304685239,0.19045329540349004,negative,0.947103824759176
1989 Q2,covid_dummy,0.0,0.0,0.0,neutral,0.947103824759176
1989 Q3,DPCERA3M086SBEA,0.9331004056623204,0.9331004056623204,0.24708565234292162,positive,1.987467966696637
1989 Q3,UEMP15T26,-0.949296174202861,0.949296174202861,0.2513743033934953,negative,1.987467966696637
1989 Q3,DMANEMP,-0.503649079187554,0.503649079187554,0.1333666350671417,negative,1.987467966696637
1989 Q3,IPDMAT,-0.02165675293966963,0.02165675293966963,0.005734723610938238,negative,1.987467966696637
1989 Q3,W875RX1,0.580811768126189,0.580811768126189,0.15379937008390931,positive,1.987467966696637
1989 Q3,UNRATE,-0.0,0.0,0.0,neutral,1.987467966696637
1989 Q3,GDP_growth_lag1,-0.39033714485416576,0.39033714485416576,0.10336155411003875,negative,1.987467966696637
1989 Q3,GDP_growth_lag2,-0.39757355771246594,0.39757355771246594,0.1052777613915549,negative,1.987467966696637
1989 Q3,covid_dummy,0.0,0.0,0.0,neutral,1.987467966696637
1989 Q4,DPCERA3M086SBEA,0.7058954084041746,0.7058954084041746,0.26576482820018854,positive,3.0528543976471374
1989 Q4,UEMP15T26,0.2579040123910955,0.2579040123910955,0.09709910948452266,positive,3.0528543976471374
1989 Q4,DMANEMP,-0.31649111564435173,0.31649111564435173,0.11915675605010735,negative,3.0528543976471374
1989 Q4,IPDMAT,-0.056315780065820435,0.056315780065820435,0.021202508807909477,negative,3.0528543976471374
1989 Q4,W875RX1,0.520712848508636,0.520712848508636,0.1960448517980614,positive,3.0528543976471374
1989 Q4,UNRATE,-0.12702276673422935,0.12702276673422935,0.04782320918470426,negative,3.0528543976471374
1989 Q4,GDP_growth_lag1,-0.3765978680923427,0.3765978680923427,0.1417865402190181,negative,3.0528543976471374
1989 Q4,GDP_growth_lag2,-0.29515059851881886,0.29515059851881886,0.11112219625548823,negative,3.0528543976471374
1989 Q4,covid_dummy,0.0,0.0,0.0,neutral,3.0528543976471374
1990 Q1,DPCERA3M086SBEA,0.28636436444098823,0.28636436444098823,0.13728510427505372,positive,3.8084007059461005
1990 Q1,UEMP15T26,0.581926862100125,0.581926862100125,0.2789798587538065,positive,3.8084007059461005
1990 Q1,DMANEMP,-0.11098568993648586,0.11098568993648586,0.053207325728928466,negative,3.8084007059461005
1990 Q1,IPDMAT,0.13485490802619143,0.13485490802619143,0.06465039791706906,positive,3.8084007059461005
1990 Q1,W875RX1,0.33052899693925814,0.33052899693925814,0.15845794185779652,positive,3.8084007059461005
1990 Q1,UNRATE,0.2543989060771808,0.2543989060771808,0.12196063716392504,positive,3.8084007059461005
1990 Q1,GDP_growth_lag1,-0.09984524808633714,0.09984524808633714,0.04786651901209618,negative,3.8084007059461005
1990 Q1,GDP_growth_lag2,-0.28700497036434486,0.28700497036434486,0.13759221529132457,negative,3.8084007059461005
1990 Q1,covid_dummy,0.0,0.0,0.0,neutral,3.8084007059461005
1990 Q2,DPCERA3M086SBEA,0.3775825533978924,0.3775825533978924,0.11741771810289098,positive,1.3594030205285226
1990 Q2,UEMP15T26,-1.2472554681295949,1.2472554681295949,0.3878619116302304,negative,1.3594030205285226
1990 Q2,DMANEMP,-0.4156710711372198,0.4156710711372198,0.12926219237382075,negative,1.3594030205285226
1990 Q2,IPDMAT,0.06953327004739043,0.06953327004739043,0.021622921471673738,positive,1.3594030205285226
1990 Q2,W875RX1,0.47429922254054313,0.47429922254054313,0.14749392393138233,positive,1.3594030205285226
1990 Q2,UNRATE,-0.0,0.0,0.0,neutral,1.3594030205285226
1990 Q2,GDP_growth_lag1,-0.5554349722332678,0.5554349722332678,0.172724895277264,negative,1.3594030205285226
1990 Q2,GDP_growth_lag2,-0.07594385931714837,0.07594385931714837,0.023616437212737783,negative,1.3594030205285226
1990 Q2,covid_dummy,0.0,0.0,0.0,neutral,1.3594030205285226
1990 Q3,DPCERA3M086SBEA,0.16191779702857645,0.16191779702857645,0.03943835034399256,positive,-1.0484460090912715
1990 Q3,UEMP15T26,-1.2556569823782595,1.2556569823782595,0.30584062340086343,negative,-1.0484460090912715
1990 Q3,DMANEMP,-0.8505468477350555,0.8505468477350555,0.20716786653806493,negative,-1.0484460090912715
1990 Q3,IPDMAT,-0.0005369719430335564,0.0005369719430335564,0.0001307903640173309,negative,-1.0484460090912715
1990 Q3,W875RX1,-0.32078283555762455,0.32078283555762455,0.07813313968709804,negative,-1.0484460090912715
1990 Q3,UNRATE,-0.9114968555589492,0.9114968555589492,0.22201347218574782,negative,-1.0484460090912715
1990 Q3,GDP_growth_lag1,-0.18485722656373685,0.18485722656373685,0.0450257118033343,negative,-1.0484460090912715
1990 Q3,GDP_growth_lag2,-0.41979702491775023,0.41979702491775023,0.10225004567688174,negative,-1.0484460090912715
1990 Q3,covid_dummy,0.0,0.0,0.0,neutral,-1.0484460090912715
1990 Q4,DPCERA3M086SBEA,-0.882323092806227,0.882323092806227,0.2244608076998076,negative,-1.1982021309379436
1990 Q4,UEMP15T26,-0.567890153172982,0.567890153172982,0.14446984727619427,negative,-1.1982021309379436
1990 Q4,DMANEMP,-1.0173722905533984,1.0173722905533984,0.25881698884557125,negative,-1.1982021309379436
1990 Q4,IPDMAT,-0.3550133193615482,0.3550133193615482,0.09031450843549821,negative,-1.1982021309379436
1990 Q4,W875RX1,-0.4565902975250992,0.4565902975250992,0.11615543989041555,negative,-1.1982021309379436
1990 Q4,UNRATE,-0.48559001590714157,0.48559001590714157,0.12353289636205494,negative,-1.1982021309379436
1990 Q4,GDP_growth_lag1,-0.03352008070878347,0.03352008070878347,0.00852742544244919,negative,-1.1982021309379436
1990 Q4,GDP_growth_lag2,-0.1325566612838243,0.1325566612838243,0.033722086048009,negative,-1.1982021309379436
1990 Q4,covid_dummy,0.0,0.0,0.0,neutral,-1.1982021309379436
1991 Q1,DPCERA3M086SBEA,0.7946498130602387,0.7946498130602387,0.13373413157706907,positive,-0.8253910942292951
1991 Q1,UEMP15T26,-1.7955027188893598,1.7955027188893598,0.3021708341316032,negative,-0.8253910942292951
1991 Q1,DMANEMP,-1.3144417690676724,1.3144417690676724,0.2212115646487493,negative,-0.8253910942292951
1991 Q1,IPDMAT,-0.27724729140043936,0.27724729140043936,0.046658823972719796,negative,-0.8253910942292951
1991 Q1,W875RX1,-0.7126662686822031,0.7126662686822031,0.11993686147039936,negative,-0.8253910942292951
1991 Q1,UNRATE,-0.5784090996574229,0.5784090996574229,0.09734229766073837,negative,-0.8253910942292951
1991 Q1,GDP_growth_lag1,0.4448798841067693,0.4448798841067693,0.07487024344472581,positive,-0.8253910942292951
1991 Q1,GDP_growth_lag2,-0.024215143319279767,0.024215143319279767,0.004075243093994987,negative,-0.8253910942292951
1991 Q1,covid_dummy,0.0,0.0,0.0,neutral,-0.8253910942292951
1991 Q2,DPCERA3M086SBEA,-0.05381168597125876,0.05381168597125876,0.01439138480628807,negative,1.7074072201749562
1991 Q2,UEMP15T26,-1.6665036213595263,1.6665036213595263,0.44568934169554175,negative,1.7074072201749562
1991 Q2,DMANEMP,-0.4838134393819474,0.4838134393819474,0.12939095393365277,negative,1.7074072201749562
1991 Q2,IPDMAT,0.2638082459803391,0.2638082459803391,0.07055281607423959,positive,1.7074072201749562
1991 Q2,W875RX1,0.6006762100579266,0.6006762100579266,0.16064470619901175,positive,1.7074072201749562
1991 Q2,UNRATE,-0.11523090190544652,0.11523090190544652,0.0308173256601297,negative,1.7074072201749562
1991 Q2,GDP_growth_lag1,0.2226168584112841,0.2226168584112841,0.05953660094342504,positive,1.7074072201749562
1991 Q2,GDP_growth_lag2,0.3326987283433895,0.3326987283433895,0.08897687068771128,positive,1.7074072201749562
1991 Q2,covid_dummy,0.0,0.0,0.0,neutral,1.7074072201749562
1991 Q3,DPCERA3M086SBEA,0.33109627977481515,0.33109627977481515,0.13996942295519116,positive,3.612861050137558
1991 Q3,UEMP15T26,0.7700426906855606,0.7700426906855606,0.3255319906929355,positive,3.612861050137558
1991 Q3,DMANEMP,-0.3233059190240219,0.3233059190240219,0.13667608393113775,negative,3.612861050137558
1991 Q3,IPDMAT,0.26500416620071965,0.26500416620071965,0.11202928721839944,positive,3.612861050137558
1991 Q3,W875RX1,0.11851169636623876,0.11851169636623876,0.05010027223835039,positive,3.612861050137558
1991 Q3,UNRATE,-0.0,0.0,0.0,neutral,3.612861050137558
1991 Q3,GDP_growth_lag1,-0.37763350085501596,0.37763350085501596,0.15964281821340431,negative,3.612861050137558
1991 Q3,GDP_growth_lag2,0.17989581474083144,0.17989581474083144,0.07605012475058157,positive,3.612861050137558
1991 Q3,covid_dummy,0.0,0.0,0.0,neutral,3.612861050137558
1991 Q4,DPCERA3M086SBEA,0.20914583712836954,0.20914583712836954,0.07032313201145007,positive,1.1523999294678324
1991 Q4,UEMP15T26,-0.5325912880020569,0.5325912880020569,0.1790783310275914,negative,1.1523999294678324
1991 Q4,DMANEMP,-0.6587306391377656,0.6587306391377656,0.22149138769441168,negative,1.1523999294678324
1991 Q4,IPDMAT,-0.017646451789955806,0.017646451789955806,0.005933437527599839,negative,1.1523999294678324
1991 Q4,W875RX1,0.5437125120710652,0.5437125120710652,0.18281772799131754,positive,1.1523999294678324
1991 Q4,UNRATE,-0.4715024158355023,0.4715024158355023,0.1585378274211895,negative,1.1523999294678324
1991 Q4,GDP_growth_lag1,-0.24849372716650783,0.24849372716650783,0.0835534544673814,negative,1.1523999294678324
1991 Q4,GDP_growth_lag2,-0.29224598994163414,0.29224598994163414,0.09826470185905854,negative,1.1523999294678324
1991 Q4,covid_dummy,0.0,0.0,0.0,neutral,1.1523999294678324
1992 Q1,DPCERA3M086SBEA,1.5152331768390281,1.5152331768390281,0.4056812596077508,positive,3.744973117596854
1992 Q1,UEMP15T26,-0.23021321779297108,0.23021321779297108,0.06163618220625041,negative,3.744973117596854
1992 Q1,DMANEMP,-0.5976093773598858,0.5976093773598858,0.160001066942397,negative,3.744973117596854
1992 Q1,IPDMAT,0.2163909487225932,0.2163909487225932,0.05793547421435837,positive,3.744973117596854
1992 Q1,W875RX1,0.6980431991128376,0.6980431991128376,0.1868907364261099,positive,3.744973117596854
1992 Q1,UNRATE,-0.11708758288926117,0.11708758288926117,0.03134846757383839,negative,3.744973117596854
1992 Q1,GDP_growth_lag1,-0.17140506479659134,0.17140506479659134,0.045891169526059365,negative,3.744973117596854
1992 Q1,GDP_growth_lag2,-0.18905113432480183,0.18905113432480183,0.05061564350323581,negative,3.744973117596854
1992 Q1,covid_dummy,0.0,0.0,0.0,neutral,3.744973117596854
1992 Q2,DPCERA3M086SBEA,0.7647620434836797,0.7647620434836797,0.18168621815803232,positive,2.3026654752446456
1992 Q2,UEMP15T26,-1.0638673228224902,1.0638673228224902,0.2527453240553689,negative,2.3026654752446456
1992 Q2,DMANEMP,-0.019196107425533838,0.019196107425533838,0.004560461899512399,negative,2.3026654752446456
1992 Q2,IPDMAT,0.1816167760577509,0.1816167760577509,0.04314710108477188,positive,2.3026654752446456
1992 Q2,W875RX1,1.003331614978844,1.003331614978844,0.23836372141786,positive,2.3026654752446456
1992 Q2,UNRATE,-0.4642535440139638,0.4642535440139638,0.11029374613589948,negative,2.3026654752446456
1992 Q2,GDP_growth_lag1,-0.5837048344279948,0.5837048344279948,0.13867205464943552,negative,2.3026654752446456
1992 Q2,GDP_growth_lag2,-0.1285140674729373,0.1285140674729373,0.030531372599119398,negative,2.3026654752446456
1992 Q2,covid_dummy,0.0,0.0,0.0,neutral,2.3026654752446456
1992 Q3,DPCERA3M086SBEA,1.080243610899381,1.080243610899381,0.2616209939972892,positive,3.6370240885310734
1992 Q3,UEMP15T26,1.243660808091096,1.243660808091096,0.30119851996844704,positive,3.6370240885310734
1992 Q3,DMANEMP,-0.3462321476924522,0.3462321476924522,0.08385293624435312,negative,3.6370240885310734
1992 Q3,IPDMAT,0.05616389350084231,0.05616389350084231,0.013602166674436268,positive,3.6370240885310734
1992 Q3,W875RX1,-0.23249154315203363,0.23249154315203363,0.0563064368089692,negative,3.6370240885310734
1992 Q3,UNRATE,0.20608148137276286,0.20608148137276286,0.04991026233081604,positive,3.6370240885310734
1992 Q3,GDP_growth_lag1,-0.5115798770683451,0.5115798770683451,0.12389801207544283,negative,3.6370240885310734
1992 Q3,GDP_growth_lag2,-0.4525868746139547,0.4525868746139547,0.10961067190024627,negative,3.6370240885310734
1992 Q3,covid_dummy,0.0,0.0,0.0,neutral,3.6370240885310734
1992 Q4,DPCERA3M086SBEA,1.025297871268952,1.025297871268952,0.15249181875572526,positive,5.142360261183683
1992 Q4,UEMP15T26,-1.1790841135840215,1.1790841135840215,0.17536433653556763,negative,5.142360261183683
1992 Q4,DMANEMP,-0.038915564565119284,0.038915564565119284,0.005787884072261213,negative,5.142360261183683
1992 Q4,IPDMAT,0.16005966110483277,0.16005966110483277,0.023805558867583385,positive,5.142360261183683
1992 Q4,W875RX1,3.2413283053699544,3.2413283053699544,0.48208043956878627,positive,5.142360261183683
1992 Q4,UNRATE,0.20829351875756782,0.20829351875756782,0.030979346003186366,positive,5.142360261183683
